(Exported by FreeCAD)
(Post Processor: linuxcnc_post)
(Output Time:2023-08-19 20:35:57.706021)
(begin preamble)
G17 G54 G40 G49 G80 G90
G21
(begin operation: G54)
(machine units: mm/min)
G54 
G0 Z13.000 
(finish operation: G54)
(begin operation: TC: Default Tool)
(machine units: mm/min)
(TC: Default Tool) 
M5
M6 T1 
G43 H1 
M3 S15000 
(finish operation: TC: Default Tool)
(begin operation: MillFace001)
(machine units: mm/min)
(MillFace001) 
G0 Z13.000 
G0 X29.750 Y18.283 
G0 Z11.000 
G1 X29.750 Y18.283 Z8.000 
G1 X-7.283 Y-18.750 Z8.000 
G0 Z13.000 
G0 X-7.236 Z13.000 
G0 X-7.236 Z11.000 
G1 X-7.236 Y-18.750 Z8.000 
G1 X29.750 Y18.236 Z8.000 
G0 Z13.000 
G0 Y17.119 Z13.000 
G0 Y17.119 Z11.000 
G1 X29.750 Y17.119 Z8.000 
G1 X28.119 Y18.750 Z8.000 
G0 Z13.000 
G0 X28.072 Z13.000 
G0 X28.072 Z11.000 
G1 X28.072 Y18.750 Z8.000 
G1 X29.750 Y17.072 Z8.000 
G0 Z13.000 
G0 Y16.515 Z13.000 
G0 Y16.515 Z11.000 
G1 X29.750 Y16.515 Z8.000 
G1 X-5.515 Y-18.750 Z8.000 
G0 Z13.000 
G0 X-5.468 Z13.000 
G0 X-5.468 Z11.000 
G1 X-5.468 Y-18.750 Z8.000 
G1 X29.750 Y16.468 Z8.000 
G0 Z13.000 
G0 Y15.352 Z13.000 
G0 Y15.352 Z11.000 
G1 X29.750 Y15.352 Z8.000 
G1 X26.352 Y18.750 Z8.000 
G0 Z13.000 
G0 X26.304 Z13.000 
G0 X26.304 Z11.000 
G1 X26.304 Y18.750 Z8.000 
G1 X29.750 Y15.304 Z8.000 
G0 Z13.000 
G0 Y14.748 Z13.000 
G0 Y14.748 Z11.000 
G1 X29.750 Y14.748 Z8.000 
G1 X-3.748 Y-18.750 Z8.000 
G0 Z13.000 
G0 X-3.700 Z13.000 
G0 X-3.700 Z11.000 
G1 X-3.700 Y-18.750 Z8.000 
G1 X29.750 Y14.700 Z8.000 
G0 Z13.000 
G0 Y13.584 Z13.000 
G0 Y13.584 Z11.000 
G1 X29.750 Y13.584 Z8.000 
G1 X24.584 Y18.750 Z8.000 
G0 Z13.000 
G0 X24.537 Z13.000 
G0 X24.537 Z11.000 
G1 X24.537 Y18.750 Z8.000 
G1 X29.750 Y13.537 Z8.000 
G0 Z13.000 
G0 Y12.980 Z13.000 
G0 Y12.980 Z11.000 
G1 X29.750 Y12.980 Z8.000 
G1 X-1.980 Y-18.750 Z8.000 
G0 Z13.000 
G0 X-1.933 Z13.000 
G0 X-1.933 Z11.000 
G1 X-1.933 Y-18.750 Z8.000 
G1 X29.750 Y12.933 Z8.000 
G0 Z13.000 
G0 Y11.816 Z13.000 
G0 Y11.816 Z11.000 
G1 X29.750 Y11.816 Z8.000 
G1 X22.816 Y18.750 Z8.000 
G0 Z13.000 
G0 X22.769 Z13.000 
G0 X22.769 Z11.000 
G1 X22.769 Y18.750 Z8.000 
G1 X29.750 Y11.769 Z8.000 
G0 Z13.000 
G0 Y11.212 Z13.000 
G0 Y11.212 Z11.000 
G1 X29.750 Y11.212 Z8.000 
G1 X-0.212 Y-18.750 Z8.000 
G0 Z13.000 
G0 X-0.165 Z13.000 
G0 X-0.165 Z11.000 
G1 X-0.165 Y-18.750 Z8.000 
G1 X29.750 Y11.165 Z8.000 
G0 Z13.000 
G0 Y10.048 Z13.000 
G0 Y10.048 Z11.000 
G1 X29.750 Y10.048 Z8.000 
G1 X21.048 Y18.750 Z8.000 
G0 Z13.000 
G0 X21.001 Z13.000 
G0 X21.001 Z11.000 
G1 X21.001 Y18.750 Z8.000 
G1 X29.750 Y10.001 Z8.000 
G0 Z13.000 
G0 Y9.444 Z13.000 
G0 Y9.444 Z11.000 
G1 X29.750 Y9.444 Z8.000 
G1 X1.556 Y-18.750 Z8.000 
G0 Z13.000 
G0 X1.603 Z13.000 
G0 X1.603 Z11.000 
G1 X1.603 Y-18.750 Z8.000 
G1 X29.750 Y9.397 Z8.000 
G0 Z13.000 
G0 Y8.281 Z13.000 
G0 Y8.281 Z11.000 
G1 X29.750 Y8.281 Z8.000 
G1 X19.281 Y18.750 Z8.000 
G0 Z13.000 
G0 X19.233 Z13.000 
G0 X19.233 Z11.000 
G1 X19.233 Y18.750 Z8.000 
G1 X29.750 Y8.233 Z8.000 
G0 Z13.000 
G0 Y7.677 Z13.000 
G0 Y7.677 Z11.000 
G1 X29.750 Y7.677 Z8.000 
G1 X3.323 Y-18.750 Z8.000 
G0 Z13.000 
G0 X3.371 Z13.000 
G0 X3.371 Z11.000 
G1 X3.371 Y-18.750 Z8.000 
G1 X29.750 Y7.629 Z8.000 
G0 Z13.000 
G0 Y6.513 Z13.000 
G0 Y6.513 Z11.000 
G1 X29.750 Y6.513 Z8.000 
G1 X17.513 Y18.750 Z8.000 
G0 Z13.000 
G0 X17.466 Z13.000 
G0 X17.466 Z11.000 
G1 X17.466 Y18.750 Z8.000 
G1 X29.750 Y6.466 Z8.000 
G0 Z13.000 
G0 Y5.909 Z13.000 
G0 Y5.909 Z11.000 
G1 X29.750 Y5.909 Z8.000 
G1 X5.091 Y-18.750 Z8.000 
G0 Z13.000 
G0 X5.139 Z13.000 
G0 X5.139 Z11.000 
G1 X5.139 Y-18.750 Z8.000 
G1 X29.750 Y5.861 Z8.000 
G0 Z13.000 
G0 Y4.745 Z13.000 
G0 Y4.745 Z11.000 
G1 X29.750 Y4.745 Z8.000 
G1 X15.745 Y18.750 Z8.000 
G0 Z13.000 
G0 X15.698 Z13.000 
G0 X15.698 Z11.000 
G1 X15.698 Y18.750 Z8.000 
G1 X29.750 Y4.698 Z8.000 
G0 Z13.000 
G0 Y4.141 Z13.000 
G0 Y4.141 Z11.000 
G1 X29.750 Y4.141 Z8.000 
G1 X6.859 Y-18.750 Z8.000 
G0 Z13.000 
G0 X6.906 Z13.000 
G0 X6.906 Z11.000 
G1 X6.906 Y-18.750 Z8.000 
G1 X29.750 Y4.094 Z8.000 
G0 Z13.000 
G0 Y2.977 Z13.000 
G0 Y2.977 Z11.000 
G1 X29.750 Y2.977 Z8.000 
G1 X13.977 Y18.750 Z8.000 
G0 Z13.000 
G0 X13.930 Z13.000 
G0 X13.930 Z11.000 
G1 X13.930 Y18.750 Z8.000 
G1 X29.750 Y2.930 Z8.000 
G0 Z13.000 
G0 Y2.373 Z13.000 
G0 Y2.373 Z11.000 
G1 X29.750 Y2.373 Z8.000 
G1 X8.627 Y-18.750 Z8.000 
G0 Z13.000 
G0 X8.674 Z13.000 
G0 X8.674 Z11.000 
G1 X8.674 Y-18.750 Z8.000 
G1 X29.750 Y2.326 Z8.000 
G0 Z13.000 
G0 Y1.210 Z13.000 
G0 Y1.210 Z11.000 
G1 X29.750 Y1.210 Z8.000 
G1 X12.210 Y18.750 Z8.000 
G0 Z13.000 
G0 X12.162 Z13.000 
G0 X12.162 Z11.000 
G1 X12.162 Y18.750 Z8.000 
G1 X29.750 Y1.162 Z8.000 
G0 Z13.000 
G0 Y0.606 Z13.000 
G0 Y0.606 Z11.000 
G1 X29.750 Y0.606 Z8.000 
G1 X10.394 Y-18.750 Z8.000 
G0 Z13.000 
G0 X10.442 Z13.000 
G0 X10.442 Z11.000 
G1 X10.442 Y-18.750 Z8.000 
G1 X29.750 Y0.558 Z8.000 
G0 Z13.000 
G0 Y-0.558 Z13.000 
G0 Y-0.558 Z11.000 
G1 X29.750 Y-0.558 Z8.000 
G1 X10.442 Y18.750 Z8.000 
G0 Z13.000 
G0 X10.394 Z13.000 
G0 X10.394 Z11.000 
G1 X10.394 Y18.750 Z8.000 
G1 X29.750 Y-0.606 Z8.000 
G0 Z13.000 
G0 Y-1.162 Z13.000 
G0 Y-1.162 Z11.000 
G1 X29.750 Y-1.162 Z8.000 
G1 X12.162 Y-18.750 Z8.000 
G0 Z13.000 
G0 X12.210 Z13.000 
G0 X12.210 Z11.000 
G1 X12.210 Y-18.750 Z8.000 
G1 X29.750 Y-1.210 Z8.000 
G0 Z13.000 
G0 Y-2.326 Z13.000 
G0 Y-2.326 Z11.000 
G1 X29.750 Y-2.326 Z8.000 
G1 X8.674 Y18.750 Z8.000 
G0 Z13.000 
G0 X8.627 Z13.000 
G0 X8.627 Z11.000 
G1 X8.627 Y18.750 Z8.000 
G1 X29.750 Y-2.373 Z8.000 
G0 Z13.000 
G0 Y-2.930 Z13.000 
G0 Y-2.930 Z11.000 
G1 X29.750 Y-2.930 Z8.000 
G1 X13.930 Y-18.750 Z8.000 
G0 Z13.000 
G0 X13.977 Z13.000 
G0 X13.977 Z11.000 
G1 X13.977 Y-18.750 Z8.000 
G1 X29.750 Y-2.977 Z8.000 
G0 Z13.000 
G0 Y-4.094 Z13.000 
G0 Y-4.094 Z11.000 
G1 X29.750 Y-4.094 Z8.000 
G1 X6.906 Y18.750 Z8.000 
G0 Z13.000 
G0 X6.859 Z13.000 
G0 X6.859 Z11.000 
G1 X6.859 Y18.750 Z8.000 
G1 X29.750 Y-4.141 Z8.000 
G0 Z13.000 
G0 Y-4.698 Z13.000 
G0 Y-4.698 Z11.000 
G1 X29.750 Y-4.698 Z8.000 
G1 X15.698 Y-18.750 Z8.000 
G0 Z13.000 
G0 X15.745 Z13.000 
G0 X15.745 Z11.000 
G1 X15.745 Y-18.750 Z8.000 
G1 X29.750 Y-4.745 Z8.000 
G0 Z13.000 
G0 Y-5.861 Z13.000 
G0 Y-5.861 Z11.000 
G1 X29.750 Y-5.861 Z8.000 
G1 X5.139 Y18.750 Z8.000 
G0 Z13.000 
G0 X5.091 Z13.000 
G0 X5.091 Z11.000 
G1 X5.091 Y18.750 Z8.000 
G1 X29.750 Y-5.909 Z8.000 
G0 Z13.000 
G0 Y-6.466 Z13.000 
G0 Y-6.466 Z11.000 
G1 X29.750 Y-6.466 Z8.000 
G1 X17.466 Y-18.750 Z8.000 
G0 Z13.000 
G0 X17.513 Z13.000 
G0 X17.513 Z11.000 
G1 X17.513 Y-18.750 Z8.000 
G1 X29.750 Y-6.513 Z8.000 
G0 Z13.000 
G0 Y-7.629 Z13.000 
G0 Y-7.629 Z11.000 
G1 X29.750 Y-7.629 Z8.000 
G1 X3.371 Y18.750 Z8.000 
G0 Z13.000 
G0 X3.323 Z13.000 
G0 X3.323 Z11.000 
G1 X3.323 Y18.750 Z8.000 
G1 X29.750 Y-7.677 Z8.000 
G0 Z13.000 
G0 Y-8.233 Z13.000 
G0 Y-8.233 Z11.000 
G1 X29.750 Y-8.233 Z8.000 
G1 X19.233 Y-18.750 Z8.000 
G0 Z13.000 
G0 X19.281 Z13.000 
G0 X19.281 Z11.000 
G1 X19.281 Y-18.750 Z8.000 
G1 X29.750 Y-8.281 Z8.000 
G0 Z13.000 
G0 Y-9.397 Z13.000 
G0 Y-9.397 Z11.000 
G1 X29.750 Y-9.397 Z8.000 
G1 X1.603 Y18.750 Z8.000 
G0 Z13.000 
G0 X1.556 Z13.000 
G0 X1.556 Z11.000 
G1 X1.556 Y18.750 Z8.000 
G1 X29.750 Y-9.444 Z8.000 
G0 Z13.000 
G0 Y-10.001 Z13.000 
G0 Y-10.001 Z11.000 
G1 X29.750 Y-10.001 Z8.000 
G1 X21.001 Y-18.750 Z8.000 
G0 Z13.000 
G0 X21.048 Z13.000 
G0 X21.048 Z11.000 
G1 X21.048 Y-18.750 Z8.000 
G1 X29.750 Y-10.048 Z8.000 
G0 Z13.000 
G0 Y-11.165 Z13.000 
G0 Y-11.165 Z11.000 
G1 X29.750 Y-11.165 Z8.000 
G1 X-0.165 Y18.750 Z8.000 
G0 Z13.000 
G0 X-0.212 Z13.000 
G0 X-0.212 Z11.000 
G1 X-0.212 Y18.750 Z8.000 
G1 X29.750 Y-11.212 Z8.000 
G0 Z13.000 
G0 Y-11.769 Z13.000 
G0 Y-11.769 Z11.000 
G1 X29.750 Y-11.769 Z8.000 
G1 X22.769 Y-18.750 Z8.000 
G0 Z13.000 
G0 X22.816 Z13.000 
G0 X22.816 Z11.000 
G1 X22.816 Y-18.750 Z8.000 
G1 X29.750 Y-11.816 Z8.000 
G0 Z13.000 
G0 Y-12.933 Z13.000 
G0 Y-12.933 Z11.000 
G1 X29.750 Y-12.933 Z8.000 
G1 X-1.933 Y18.750 Z8.000 
G0 Z13.000 
G0 X-1.980 Z13.000 
G0 X-1.980 Z11.000 
G1 X-1.980 Y18.750 Z8.000 
G1 X29.750 Y-12.980 Z8.000 
G0 Z13.000 
G0 Y-13.537 Z13.000 
G0 Y-13.537 Z11.000 
G1 X29.750 Y-13.537 Z8.000 
G1 X24.537 Y-18.750 Z8.000 
G0 Z13.000 
G0 X24.584 Z13.000 
G0 X24.584 Z11.000 
G1 X24.584 Y-18.750 Z8.000 
G1 X29.750 Y-13.584 Z8.000 
G0 Z13.000 
G0 Y-14.700 Z13.000 
G0 Y-14.700 Z11.000 
G1 X29.750 Y-14.700 Z8.000 
G1 X-3.700 Y18.750 Z8.000 
G0 Z13.000 
G0 X-3.748 Z13.000 
G0 X-3.748 Z11.000 
G1 X-3.748 Y18.750 Z8.000 
G1 X29.750 Y-14.748 Z8.000 
G0 Z13.000 
G0 Y-15.304 Z13.000 
G0 Y-15.304 Z11.000 
G1 X29.750 Y-15.304 Z8.000 
G1 X26.304 Y-18.750 Z8.000 
G0 Z13.000 
G0 X26.352 Z13.000 
G0 X26.352 Z11.000 
G1 X26.352 Y-18.750 Z8.000 
G1 X29.750 Y-15.352 Z8.000 
G0 Z13.000 
G0 Y-16.468 Z13.000 
G0 Y-16.468 Z11.000 
G1 X29.750 Y-16.468 Z8.000 
G1 X-5.468 Y18.750 Z8.000 
G0 Z13.000 
G0 X-5.515 Z13.000 
G0 X-5.515 Z11.000 
G1 X-5.515 Y18.750 Z8.000 
G1 X29.750 Y-16.515 Z8.000 
G0 Z13.000 
G0 Y-17.072 Z13.000 
G0 Y-17.072 Z11.000 
G1 X29.750 Y-17.072 Z8.000 
G1 X28.072 Y-18.750 Z8.000 
G0 Z13.000 
G0 X28.119 Z13.000 
G0 X28.119 Z11.000 
G1 X28.119 Y-18.750 Z8.000 
G1 X29.750 Y-17.119 Z8.000 
G0 Z13.000 
G0 Y-18.236 Z13.000 
G0 Y-18.236 Z11.000 
G1 X29.750 Y-18.236 Z8.000 
G1 X-7.236 Y18.750 Z8.000 
G0 Z13.000 
G0 X-7.283 Z13.000 
G0 X-7.283 Z11.000 
G1 X-7.283 Y18.750 Z8.000 
G1 X29.750 Y-18.283 Z8.000 
G0 Z13.000 
G0 X28.496 Y-18.750 Z13.000 
G0 X28.496 Y-18.750 Z11.000 
G1 X28.496 Y-18.750 Z8.000 
G1 X-9.004 Y18.750 Z8.000 
G0 Z13.000 
G0 X-9.051 Z13.000 
G0 X-9.051 Z11.000 
G1 X-9.051 Y18.750 Z8.000 
G1 X28.449 Y-18.750 Z8.000 
G0 Z13.000 
G0 X26.729 Z13.000 
G0 X26.729 Z11.000 
G1 X26.729 Y-18.750 Z8.000 
G1 X-10.771 Y18.750 Z8.000 
G0 Z13.000 
G0 X-10.819 Z13.000 
G0 X-10.819 Z11.000 
G1 X-10.819 Y18.750 Z8.000 
G1 X26.681 Y-18.750 Z8.000 
G0 Z13.000 
G0 X24.961 Z13.000 
G0 X24.961 Z11.000 
G1 X24.961 Y-18.750 Z8.000 
G1 X-12.539 Y18.750 Z8.000 
G0 Z13.000 
G0 X-12.586 Z13.000 
G0 X-12.586 Z11.000 
G1 X-12.586 Y18.750 Z8.000 
G1 X24.914 Y-18.750 Z8.000 
G0 Z13.000 
G0 X23.193 Z13.000 
G0 X23.193 Z11.000 
G1 X23.193 Y-18.750 Z8.000 
G1 X-14.307 Y18.750 Z8.000 
G0 Z13.000 
G0 X-14.354 Z13.000 
G0 X-14.354 Z11.000 
G1 X-14.354 Y18.750 Z8.000 
G1 X23.146 Y-18.750 Z8.000 
G0 Z13.000 
G0 X21.425 Z13.000 
G0 X21.425 Z11.000 
G1 X21.425 Y-18.750 Z8.000 
G1 X-16.075 Y18.750 Z8.000 
G0 Z13.000 
G0 X-16.122 Z13.000 
G0 X-16.122 Z11.000 
G1 X-16.122 Y18.750 Z8.000 
G1 X21.378 Y-18.750 Z8.000 
G0 Z13.000 
G0 X19.658 Z13.000 
G0 X19.658 Z11.000 
G1 X19.658 Y-18.750 Z8.000 
G1 X-17.842 Y18.750 Z8.000 
G0 Z13.000 
G0 X-17.890 Z13.000 
G0 X-17.890 Z11.000 
G1 X-17.890 Y18.750 Z8.000 
G1 X19.610 Y-18.750 Z8.000 
G0 Z13.000 
G0 X17.890 Z13.000 
G0 X17.890 Z11.000 
G1 X17.890 Y-18.750 Z8.000 
G1 X-19.610 Y18.750 Z8.000 
G0 Z13.000 
G0 X-19.658 Z13.000 
G0 X-19.658 Z11.000 
G1 X-19.658 Y18.750 Z8.000 
G1 X17.842 Y-18.750 Z8.000 
G0 Z13.000 
G0 X16.122 Z13.000 
G0 X16.122 Z11.000 
G1 X16.122 Y-18.750 Z8.000 
G1 X-21.378 Y18.750 Z8.000 
G0 Z13.000 
G0 X-21.425 Z13.000 
G0 X-21.425 Z11.000 
G1 X-21.425 Y18.750 Z8.000 
G1 X16.075 Y-18.750 Z8.000 
G0 Z13.000 
G0 X14.354 Z13.000 
G0 X14.354 Z11.000 
G1 X14.354 Y-18.750 Z8.000 
G1 X-23.146 Y18.750 Z8.000 
G0 Z13.000 
G0 X-23.193 Z13.000 
G0 X-23.193 Z11.000 
G1 X-23.193 Y18.750 Z8.000 
G1 X14.307 Y-18.750 Z8.000 
G0 Z13.000 
G0 X12.586 Z13.000 
G0 X12.586 Z11.000 
G1 X12.586 Y-18.750 Z8.000 
G1 X-24.914 Y18.750 Z8.000 
G0 Z13.000 
G0 X-24.961 Z13.000 
G0 X-24.961 Z11.000 
G1 X-24.961 Y18.750 Z8.000 
G1 X12.539 Y-18.750 Z8.000 
G0 Z13.000 
G0 X10.819 Z13.000 
G0 X10.819 Z11.000 
G1 X10.819 Y-18.750 Z8.000 
G1 X-26.681 Y18.750 Z8.000 
G0 Z13.000 
G0 X-26.729 Z13.000 
G0 X-26.729 Z11.000 
G1 X-26.729 Y18.750 Z8.000 
G1 X10.771 Y-18.750 Z8.000 
G0 Z13.000 
G0 X9.051 Z13.000 
G0 X9.051 Z11.000 
G1 X9.051 Y-18.750 Z8.000 
G1 X-28.449 Y18.750 Z8.000 
G0 Z13.000 
G0 X-28.496 Z13.000 
G0 X-28.496 Z11.000 
G1 X-28.496 Y18.750 Z8.000 
G1 X9.004 Y-18.750 Z8.000 
G0 Z13.000 
G0 X7.283 Z13.000 
G0 X7.283 Z11.000 
G1 X7.283 Y-18.750 Z8.000 
G1 X-29.750 Y18.283 Z8.000 
G0 Z13.000 
G0 Y18.236 Z13.000 
G0 Y18.236 Z11.000 
G1 X-29.750 Y18.236 Z8.000 
G1 X7.236 Y-18.750 Z8.000 
G0 Z13.000 
G0 X5.515 Z13.000 
G0 X5.515 Z11.000 
G1 X5.515 Y-18.750 Z8.000 
G1 X-29.750 Y16.515 Z8.000 
G0 Z13.000 
G0 Y16.468 Z13.000 
G0 Y16.468 Z11.000 
G1 X-29.750 Y16.468 Z8.000 
G1 X5.468 Y-18.750 Z8.000 
G0 Z13.000 
G0 X3.748 Z13.000 
G0 X3.748 Z11.000 
G1 X3.748 Y-18.750 Z8.000 
G1 X-29.750 Y14.748 Z8.000 
G0 Z13.000 
G0 Y14.700 Z13.000 
G0 Y14.700 Z11.000 
G1 X-29.750 Y14.700 Z8.000 
G1 X3.700 Y-18.750 Z8.000 
G0 Z13.000 
G0 X1.980 Z13.000 
G0 X1.980 Z11.000 
G1 X1.980 Y-18.750 Z8.000 
G1 X-29.750 Y12.980 Z8.000 
G0 Z13.000 
G0 Y12.933 Z13.000 
G0 Y12.933 Z11.000 
G1 X-29.750 Y12.933 Z8.000 
G1 X1.933 Y-18.750 Z8.000 
G0 Z13.000 
G0 X0.212 Z13.000 
G0 X0.212 Z11.000 
G1 X0.212 Y-18.750 Z8.000 
G1 X-29.750 Y11.212 Z8.000 
G0 Z13.000 
G0 Y11.165 Z13.000 
G0 Y11.165 Z11.000 
G1 X-29.750 Y11.165 Z8.000 
G1 X0.165 Y-18.750 Z8.000 
G0 Z13.000 
G0 X-1.556 Z13.000 
G0 X-1.556 Z11.000 
G1 X-1.556 Y-18.750 Z8.000 
G1 X-29.750 Y9.444 Z8.000 
G0 Z13.000 
G0 Y9.397 Z13.000 
G0 Y9.397 Z11.000 
G1 X-29.750 Y9.397 Z8.000 
G1 X-1.603 Y-18.750 Z8.000 
G0 Z13.000 
G0 X-3.323 Z13.000 
G0 X-3.323 Z11.000 
G1 X-3.323 Y-18.750 Z8.000 
G1 X-29.750 Y7.677 Z8.000 
G0 Z13.000 
G0 Y7.629 Z13.000 
G0 Y7.629 Z11.000 
G1 X-29.750 Y7.629 Z8.000 
G1 X-3.371 Y-18.750 Z8.000 
G0 Z13.000 
G0 X-5.091 Z13.000 
G0 X-5.091 Z11.000 
G1 X-5.091 Y-18.750 Z8.000 
G1 X-29.750 Y5.909 Z8.000 
G0 Z13.000 
G0 Y5.861 Z13.000 
G0 Y5.861 Z11.000 
G1 X-29.750 Y5.861 Z8.000 
G1 X-5.139 Y-18.750 Z8.000 
G0 Z13.000 
G0 X-6.859 Z13.000 
G0 X-6.859 Z11.000 
G1 X-6.859 Y-18.750 Z8.000 
G1 X-29.750 Y4.141 Z8.000 
G0 Z13.000 
G0 Y4.094 Z13.000 
G0 Y4.094 Z11.000 
G1 X-29.750 Y4.094 Z8.000 
G1 X-6.906 Y-18.750 Z8.000 
G0 Z13.000 
G0 X-8.627 Z13.000 
G0 X-8.627 Z11.000 
G1 X-8.627 Y-18.750 Z8.000 
G1 X-29.750 Y2.373 Z8.000 
G0 Z13.000 
G0 Y2.326 Z13.000 
G0 Y2.326 Z11.000 
G1 X-29.750 Y2.326 Z8.000 
G1 X-8.674 Y-18.750 Z8.000 
G0 Z13.000 
G0 X-9.004 Z13.000 
G0 X-9.004 Z11.000 
G1 X-9.004 Y-18.750 Z8.000 
G1 X28.496 Y18.750 Z8.000 
G0 Z13.000 
G0 X28.449 Z13.000 
G0 X28.449 Z11.000 
G1 X28.449 Y18.750 Z8.000 
G1 X-9.051 Y-18.750 Z8.000 
G0 Z13.000 
G0 X-10.394 Z13.000 
G0 X-10.394 Z11.000 
G1 X-10.394 Y-18.750 Z8.000 
G1 X-29.750 Y0.606 Z8.000 
G0 Z13.000 
G0 Y0.558 Z13.000 
G0 Y0.558 Z11.000 
G1 X-29.750 Y0.558 Z8.000 
G1 X-10.442 Y-18.750 Z8.000 
G0 Z13.000 
G0 X-10.771 Z13.000 
G0 X-10.771 Z11.000 
G1 X-10.771 Y-18.750 Z8.000 
G1 X26.729 Y18.750 Z8.000 
G0 Z13.000 
G0 X26.681 Z13.000 
G0 X26.681 Z11.000 
G1 X26.681 Y18.750 Z8.000 
G1 X-10.819 Y-18.750 Z8.000 
G0 Z13.000 
G0 X-12.162 Z13.000 
G0 X-12.162 Z11.000 
G1 X-12.162 Y-18.750 Z8.000 
G1 X-29.750 Y-1.162 Z8.000 
G0 Z13.000 
G0 Y-1.210 Z13.000 
G0 Y-1.210 Z11.000 
G1 X-29.750 Y-1.210 Z8.000 
G1 X-12.210 Y-18.750 Z8.000 
G0 Z13.000 
G0 X-12.539 Z13.000 
G0 X-12.539 Z11.000 
G1 X-12.539 Y-18.750 Z8.000 
G1 X24.961 Y18.750 Z8.000 
G0 Z13.000 
G0 X24.914 Z13.000 
G0 X24.914 Z11.000 
G1 X24.914 Y18.750 Z8.000 
G1 X-12.586 Y-18.750 Z8.000 
G0 Z13.000 
G0 X-13.930 Z13.000 
G0 X-13.930 Z11.000 
G1 X-13.930 Y-18.750 Z8.000 
G1 X-29.750 Y-2.930 Z8.000 
G0 Z13.000 
G0 Y-2.977 Z13.000 
G0 Y-2.977 Z11.000 
G1 X-29.750 Y-2.977 Z8.000 
G1 X-13.977 Y-18.750 Z8.000 
G0 Z13.000 
G0 X-14.307 Z13.000 
G0 X-14.307 Z11.000 
G1 X-14.307 Y-18.750 Z8.000 
G1 X23.193 Y18.750 Z8.000 
G0 Z13.000 
G0 X23.146 Z13.000 
G0 X23.146 Z11.000 
G1 X23.146 Y18.750 Z8.000 
G1 X-14.354 Y-18.750 Z8.000 
G0 Z13.000 
G0 X-15.698 Z13.000 
G0 X-15.698 Z11.000 
G1 X-15.698 Y-18.750 Z8.000 
G1 X-29.750 Y-4.698 Z8.000 
G0 Z13.000 
G0 Y-4.745 Z13.000 
G0 Y-4.745 Z11.000 
G1 X-29.750 Y-4.745 Z8.000 
G1 X-15.745 Y-18.750 Z8.000 
G0 Z13.000 
G0 X-16.075 Z13.000 
G0 X-16.075 Z11.000 
G1 X-16.075 Y-18.750 Z8.000 
G1 X21.425 Y18.750 Z8.000 
G0 Z13.000 
G0 X21.378 Z13.000 
G0 X21.378 Z11.000 
G1 X21.378 Y18.750 Z8.000 
G1 X-16.122 Y-18.750 Z8.000 
G0 Z13.000 
G0 X-17.466 Z13.000 
G0 X-17.466 Z11.000 
G1 X-17.466 Y-18.750 Z8.000 
G1 X-29.750 Y-6.466 Z8.000 
G0 Z13.000 
G0 Y-6.513 Z13.000 
G0 Y-6.513 Z11.000 
G1 X-29.750 Y-6.513 Z8.000 
G1 X-17.513 Y-18.750 Z8.000 
G0 Z13.000 
G0 X-17.842 Z13.000 
G0 X-17.842 Z11.000 
G1 X-17.842 Y-18.750 Z8.000 
G1 X19.658 Y18.750 Z8.000 
G0 Z13.000 
G0 X19.610 Z13.000 
G0 X19.610 Z11.000 
G1 X19.610 Y18.750 Z8.000 
G1 X-17.890 Y-18.750 Z8.000 
G0 Z13.000 
G0 X-19.233 Z13.000 
G0 X-19.233 Z11.000 
G1 X-19.233 Y-18.750 Z8.000 
G1 X-29.750 Y-8.233 Z8.000 
G0 Z13.000 
G0 Y-8.281 Z13.000 
G0 Y-8.281 Z11.000 
G1 X-29.750 Y-8.281 Z8.000 
G1 X-19.281 Y-18.750 Z8.000 
G0 Z13.000 
G0 X-19.610 Z13.000 
G0 X-19.610 Z11.000 
G1 X-19.610 Y-18.750 Z8.000 
G1 X17.890 Y18.750 Z8.000 
G0 Z13.000 
G0 X17.842 Z13.000 
G0 X17.842 Z11.000 
G1 X17.842 Y18.750 Z8.000 
G1 X-19.658 Y-18.750 Z8.000 
G0 Z13.000 
G0 X-21.001 Z13.000 
G0 X-21.001 Z11.000 
G1 X-21.001 Y-18.750 Z8.000 
G1 X-29.750 Y-10.001 Z8.000 
G0 Z13.000 
G0 Y-10.048 Z13.000 
G0 Y-10.048 Z11.000 
G1 X-29.750 Y-10.048 Z8.000 
G1 X-21.048 Y-18.750 Z8.000 
G0 Z13.000 
G0 X-21.378 Z13.000 
G0 X-21.378 Z11.000 
G1 X-21.378 Y-18.750 Z8.000 
G1 X16.122 Y18.750 Z8.000 
G0 Z13.000 
G0 X16.075 Z13.000 
G0 X16.075 Z11.000 
G1 X16.075 Y18.750 Z8.000 
G1 X-21.425 Y-18.750 Z8.000 
G0 Z13.000 
G0 X-22.769 Z13.000 
G0 X-22.769 Z11.000 
G1 X-22.769 Y-18.750 Z8.000 
G1 X-29.750 Y-11.769 Z8.000 
G0 Z13.000 
G0 Y-11.816 Z13.000 
G0 Y-11.816 Z11.000 
G1 X-29.750 Y-11.816 Z8.000 
G1 X-22.816 Y-18.750 Z8.000 
G0 Z13.000 
G0 X-23.146 Z13.000 
G0 X-23.146 Z11.000 
G1 X-23.146 Y-18.750 Z8.000 
G1 X14.354 Y18.750 Z8.000 
G0 Z13.000 
G0 X14.307 Z13.000 
G0 X14.307 Z11.000 
G1 X14.307 Y18.750 Z8.000 
G1 X-23.193 Y-18.750 Z8.000 
G0 Z13.000 
G0 X-24.537 Z13.000 
G0 X-24.537 Z11.000 
G1 X-24.537 Y-18.750 Z8.000 
G1 X-29.750 Y-13.537 Z8.000 
G0 Z13.000 
G0 Y-13.584 Z13.000 
G0 Y-13.584 Z11.000 
G1 X-29.750 Y-13.584 Z8.000 
G1 X-24.584 Y-18.750 Z8.000 
G0 Z13.000 
G0 X-24.914 Z13.000 
G0 X-24.914 Z11.000 
G1 X-24.914 Y-18.750 Z8.000 
G1 X12.586 Y18.750 Z8.000 
G0 Z13.000 
G0 X12.539 Z13.000 
G0 X12.539 Z11.000 
G1 X12.539 Y18.750 Z8.000 
G1 X-24.961 Y-18.750 Z8.000 
G0 Z13.000 
G0 X-26.304 Z13.000 
G0 X-26.304 Z11.000 
G1 X-26.304 Y-18.750 Z8.000 
G1 X-29.750 Y-15.304 Z8.000 
G0 Z13.000 
G0 Y-15.352 Z13.000 
G0 Y-15.352 Z11.000 
G1 X-29.750 Y-15.352 Z8.000 
G1 X-26.352 Y-18.750 Z8.000 
G0 Z13.000 
G0 X-26.681 Z13.000 
G0 X-26.681 Z11.000 
G1 X-26.681 Y-18.750 Z8.000 
G1 X10.819 Y18.750 Z8.000 
G0 Z13.000 
G0 X10.771 Z13.000 
G0 X10.771 Z11.000 
G1 X10.771 Y18.750 Z8.000 
G1 X-26.729 Y-18.750 Z8.000 
G0 Z13.000 
G0 X-28.072 Z13.000 
G0 X-28.072 Z11.000 
G1 X-28.072 Y-18.750 Z8.000 
G1 X-29.750 Y-17.072 Z8.000 
G0 Z13.000 
G0 Y-17.119 Z13.000 
G0 Y-17.119 Z11.000 
G1 X-29.750 Y-17.119 Z8.000 
G1 X-28.119 Y-18.750 Z8.000 
G0 Z13.000 
G0 X-28.449 Z13.000 
G0 X-28.449 Z11.000 
G1 X-28.449 Y-18.750 Z8.000 
G1 X9.051 Y18.750 Z8.000 
G0 Z13.000 
G0 X9.004 Z13.000 
G0 X9.004 Z11.000 
G1 X9.004 Y18.750 Z8.000 
G1 X-28.496 Y-18.750 Z8.000 
G0 Z13.000 
G0 X-29.750 Y-18.283 Z13.000 
G0 X-29.750 Y-18.283 Z11.000 
G1 X-29.750 Y-18.283 Z8.000 
G1 X7.283 Y18.750 Z8.000 
G0 Z13.000 
G0 X7.236 Z13.000 
G0 X7.236 Z11.000 
G1 X7.236 Y18.750 Z8.000 
G1 X-29.750 Y-18.236 Z8.000 
G0 Z13.000 
G0 Y-16.515 Z13.000 
G0 Y-16.515 Z11.000 
G1 X-29.750 Y-16.515 Z8.000 
G1 X5.515 Y18.750 Z8.000 
G0 Z13.000 
G0 X5.468 Z13.000 
G0 X5.468 Z11.000 
G1 X5.468 Y18.750 Z8.000 
G1 X-29.750 Y-16.468 Z8.000 
G0 Z13.000 
G0 Y-14.748 Z13.000 
G0 Y-14.748 Z11.000 
G1 X-29.750 Y-14.748 Z8.000 
G1 X3.748 Y18.750 Z8.000 
G0 Z13.000 
G0 X3.700 Z13.000 
G0 X3.700 Z11.000 
G1 X3.700 Y18.750 Z8.000 
G1 X-29.750 Y-14.700 Z8.000 
G0 Z13.000 
G0 Y-12.980 Z13.000 
G0 Y-12.980 Z11.000 
G1 X-29.750 Y-12.980 Z8.000 
G1 X1.980 Y18.750 Z8.000 
G0 Z13.000 
G0 X1.933 Z13.000 
G0 X1.933 Z11.000 
G1 X1.933 Y18.750 Z8.000 
G1 X-29.750 Y-12.933 Z8.000 
G0 Z13.000 
G0 Y-11.212 Z13.000 
G0 Y-11.212 Z11.000 
G1 X-29.750 Y-11.212 Z8.000 
G1 X0.212 Y18.750 Z8.000 
G0 Z13.000 
G0 X0.165 Z13.000 
G0 X0.165 Z11.000 
G1 X0.165 Y18.750 Z8.000 
G1 X-29.750 Y-11.165 Z8.000 
G0 Z13.000 
G0 Y-9.444 Z13.000 
G0 Y-9.444 Z11.000 
G1 X-29.750 Y-9.444 Z8.000 
G1 X-1.556 Y18.750 Z8.000 
G0 Z13.000 
G0 X-1.603 Z13.000 
G0 X-1.603 Z11.000 
G1 X-1.603 Y18.750 Z8.000 
G1 X-29.750 Y-9.397 Z8.000 
G0 Z13.000 
G0 Y-7.677 Z13.000 
G0 Y-7.677 Z11.000 
G1 X-29.750 Y-7.677 Z8.000 
G1 X-3.323 Y18.750 Z8.000 
G0 Z13.000 
G0 X-3.371 Z13.000 
G0 X-3.371 Z11.000 
G1 X-3.371 Y18.750 Z8.000 
G1 X-29.750 Y-7.629 Z8.000 
G0 Z13.000 
G0 Y-5.909 Z13.000 
G0 Y-5.909 Z11.000 
G1 X-29.750 Y-5.909 Z8.000 
G1 X-5.091 Y18.750 Z8.000 
G0 Z13.000 
G0 X-5.139 Z13.000 
G0 X-5.139 Z11.000 
G1 X-5.139 Y18.750 Z8.000 
G1 X-29.750 Y-5.861 Z8.000 
G0 Z13.000 
G0 Y-4.141 Z13.000 
G0 Y-4.141 Z11.000 
G1 X-29.750 Y-4.141 Z8.000 
G1 X-6.859 Y18.750 Z8.000 
G0 Z13.000 
G0 X-6.906 Z13.000 
G0 X-6.906 Z11.000 
G1 X-6.906 Y18.750 Z8.000 
G1 X-29.750 Y-4.094 Z8.000 
G0 Z13.000 
G0 Y-2.373 Z13.000 
G0 Y-2.373 Z11.000 
G1 X-29.750 Y-2.373 Z8.000 
G1 X-8.627 Y18.750 Z8.000 
G0 Z13.000 
G0 X-8.674 Z13.000 
G0 X-8.674 Z11.000 
G1 X-8.674 Y18.750 Z8.000 
G1 X-29.750 Y-2.326 Z8.000 
G0 Z13.000 
G0 Y-0.606 Z13.000 
G0 Y-0.606 Z11.000 
G1 X-29.750 Y-0.606 Z8.000 
G1 X-10.394 Y18.750 Z8.000 
G0 Z13.000 
G0 X-10.442 Z13.000 
G0 X-10.442 Z11.000 
G1 X-10.442 Y18.750 Z8.000 
G1 X-29.750 Y-0.558 Z8.000 
G0 Z13.000 
G0 Y1.162 Z13.000 
G0 Y1.162 Z11.000 
G1 X-29.750 Y1.162 Z8.000 
G1 X-12.162 Y18.750 Z8.000 
G0 Z13.000 
G0 X-12.210 Z13.000 
G0 X-12.210 Z11.000 
G1 X-12.210 Y18.750 Z8.000 
G1 X-29.750 Y1.210 Z8.000 
G0 Z13.000 
G0 Y2.930 Z13.000 
G0 Y2.930 Z11.000 
G1 X-29.750 Y2.930 Z8.000 
G1 X-13.930 Y18.750 Z8.000 
G0 Z13.000 
G0 X-13.977 Z13.000 
G0 X-13.977 Z11.000 
G1 X-13.977 Y18.750 Z8.000 
G1 X-29.750 Y2.977 Z8.000 
G0 Z13.000 
G0 Y4.698 Z13.000 
G0 Y4.698 Z11.000 
G1 X-29.750 Y4.698 Z8.000 
G1 X-15.698 Y18.750 Z8.000 
G0 Z13.000 
G0 X-15.745 Z13.000 
G0 X-15.745 Z11.000 
G1 X-15.745 Y18.750 Z8.000 
G1 X-29.750 Y4.745 Z8.000 
G0 Z13.000 
G0 Y6.466 Z13.000 
G0 Y6.466 Z11.000 
G1 X-29.750 Y6.466 Z8.000 
G1 X-17.466 Y18.750 Z8.000 
G0 Z13.000 
G0 X-17.513 Z13.000 
G0 X-17.513 Z11.000 
G1 X-17.513 Y18.750 Z8.000 
G1 X-29.750 Y6.513 Z8.000 
G0 Z13.000 
G0 Y8.233 Z13.000 
G0 Y8.233 Z11.000 
G1 X-29.750 Y8.233 Z8.000 
G1 X-19.233 Y18.750 Z8.000 
G0 Z13.000 
G0 X-19.281 Z13.000 
G0 X-19.281 Z11.000 
G1 X-19.281 Y18.750 Z8.000 
G1 X-29.750 Y8.281 Z8.000 
G0 Z13.000 
G0 Y10.001 Z13.000 
G0 Y10.001 Z11.000 
G1 X-29.750 Y10.001 Z8.000 
G1 X-21.001 Y18.750 Z8.000 
G0 Z13.000 
G0 X-21.048 Z13.000 
G0 X-21.048 Z11.000 
G1 X-21.048 Y18.750 Z8.000 
G1 X-29.750 Y10.048 Z8.000 
G0 Z13.000 
G0 Y11.769 Z13.000 
G0 Y11.769 Z11.000 
G1 X-29.750 Y11.769 Z8.000 
G1 X-22.769 Y18.750 Z8.000 
G0 Z13.000 
G0 X-22.816 Z13.000 
G0 X-22.816 Z11.000 
G1 X-22.816 Y18.750 Z8.000 
G1 X-29.750 Y11.816 Z8.000 
G0 Z13.000 
G0 Y13.537 Z13.000 
G0 Y13.537 Z11.000 
G1 X-29.750 Y13.537 Z8.000 
G1 X-24.537 Y18.750 Z8.000 
G0 Z13.000 
G0 X-24.584 Z13.000 
G0 X-24.584 Z11.000 
G1 X-24.584 Y18.750 Z8.000 
G1 X-29.750 Y13.584 Z8.000 
G0 Z13.000 
G0 Y15.304 Z13.000 
G0 Y15.304 Z11.000 
G1 X-29.750 Y15.304 Z8.000 
G1 X-26.304 Y18.750 Z8.000 
G0 Z13.000 
G0 X-26.352 Z13.000 
G0 X-26.352 Z11.000 
G1 X-26.352 Y18.750 Z8.000 
G1 X-29.750 Y15.352 Z8.000 
G0 Z13.000 
G0 Y17.072 Z13.000 
G0 Y17.072 Z11.000 
G1 X-29.750 Y17.072 Z8.000 
G1 X-28.072 Y18.750 Z8.000 
G0 Z13.000 
G0 X-28.119 Z13.000 
G0 X-28.119 Z11.000 
G1 X-28.119 Y18.750 Z8.000 
G1 X-29.750 Y17.119 Z8.000 
G0 Z13.000 
G0 Z13.000 
(finish operation: MillFace001)
(begin operation: Pocket_Shape001)
(machine units: mm/min)
(Pocket_Shape001) 
G0 Z13.000 
G0 X23.750 Y16.699 
G0 Z11.000 
G1 X23.750 Y16.699 Z5.500 
G1 X-9.699 Y-16.750 Z5.500 
G0 Z13.000 
G0 X-9.659 Z13.000 
G0 X-9.659 Z11.000 
G1 X-9.659 Y-16.750 Z5.500 
G1 X23.750 Y16.659 Z5.500 
G0 Z13.000 
G0 Y15.161 Z13.000 
G0 Y15.161 Z11.000 
G1 X23.750 Y15.161 Z5.500 
G1 X22.161 Y16.750 Z5.500 
G0 Z13.000 
G0 X22.121 Z13.000 
G0 X22.121 Z11.000 
G1 X22.121 Y16.750 Z5.500 
G1 X23.750 Y15.121 Z5.500 
G0 Z13.000 
G0 Y14.931 Z13.000 
G0 Y14.931 Z11.000 
G1 X23.750 Y14.931 Z5.500 
G1 X-7.931 Y-16.750 Z5.500 
G0 Z13.000 
G0 X-7.891 Z13.000 
G0 X-7.891 Z11.000 
G1 X-7.891 Y-16.750 Z5.500 
G1 X23.750 Y14.891 Z5.500 
G0 Z13.000 
G0 Y13.393 Z13.000 
G0 Y13.393 Z11.000 
G1 X23.750 Y13.393 Z5.500 
G1 X20.393 Y16.750 Z5.500 
G0 Z13.000 
G0 X20.353 Z13.000 
G0 X20.353 Z11.000 
G1 X20.353 Y16.750 Z5.500 
G1 X23.750 Y13.353 Z5.500 
G0 Z13.000 
G0 Y13.164 Z13.000 
G0 Y13.164 Z11.000 
G1 X23.750 Y13.164 Z5.500 
G1 X-6.164 Y-16.750 Z5.500 
G0 Z13.000 
G0 X-6.123 Z13.000 
G0 X-6.123 Z11.000 
G1 X-6.123 Y-16.750 Z5.500 
G1 X23.750 Y13.123 Z5.500 
G0 Z13.000 
G0 Y11.626 Z13.000 
G0 Y11.626 Z11.000 
G1 X23.750 Y11.626 Z5.500 
G1 X18.626 Y16.750 Z5.500 
G0 Z13.000 
G0 X18.585 Z13.000 
G0 X18.585 Z11.000 
G1 X18.585 Y16.750 Z5.500 
G1 X23.750 Y11.585 Z5.500 
G0 Z13.000 
G0 X23.764 Y11.410 Z13.000 
G0 X23.764 Y11.410 Z11.000 
G1 X23.764 Y11.410 Z5.500 
G1 X-4.396 Y-16.750 Z5.500 
G0 Z13.000 
G0 X-4.355 Z13.000 
G0 X-4.355 Z11.000 
G1 X-4.355 Y-16.750 Z5.500 
G1 X23.770 Y11.375 Z5.500 
G0 Z13.000 
G0 X24.490 Y10.368 Z13.000 
G0 X24.490 Y10.368 Z11.000 
G1 X24.490 Y10.368 Z5.500 
G1 X-2.628 Y-16.750 Z5.500 
G0 Z13.000 
G0 X-2.588 Z13.000 
G0 X-2.588 Z11.000 
G1 X-2.588 Y-16.750 Z5.500 
G1 X24.519 Y10.357 Z5.500 
G0 Z13.000 
G0 X25.085 Y10.250 Z13.000 
G0 X25.085 Y10.250 Z11.000 
G1 X25.085 Y10.250 Z5.500 
G1 X28.750 Y6.585 Z5.500 
G0 Z13.000 
G0 Y6.626 Z13.000 
G0 Y6.626 Z11.000 
G1 X28.750 Y6.626 Z5.500 
G1 X25.126 Y10.250 Z5.500 
G0 Z13.000 
G0 X26.140 Z13.000 
G0 X26.140 Z11.000 
G1 X26.140 Y10.250 Z5.500 
G1 X-0.860 Y-16.750 Z5.500 
G0 Z13.000 
G0 X-0.820 Z13.000 
G0 X-0.820 Z11.000 
G1 X-0.820 Y-16.750 Z5.500 
G1 X26.180 Y10.250 Z5.500 
G0 Z13.000 
G0 X26.853 Z13.000 
G0 X26.853 Z11.000 
G1 X26.853 Y10.250 Z5.500 
G1 X28.750 Y8.353 Z5.500 
G0 Z13.000 
G0 Y8.393 Z13.000 
G0 Y8.393 Z11.000 
G1 X28.750 Y8.393 Z5.500 
G1 X26.893 Y10.250 Z5.500 
G0 Z13.000 
G0 X27.907 Z13.000 
G0 X27.907 Z11.000 
G1 X27.907 Y10.250 Z5.500 
G1 X0.907 Y-16.750 Z5.500 
G0 Z13.000 
G0 X0.948 Z13.000 
G0 X0.948 Z11.000 
G1 X0.948 Y-16.750 Z5.500 
G1 X27.948 Y10.250 Z5.500 
G0 Z13.000 
G0 X28.621 Z13.000 
G0 X28.621 Z11.000 
G1 X28.621 Y10.250 Z5.500 
G1 X28.750 Y10.121 Z5.500 
G0 Z13.000 
G0 Y10.161 Z13.000 
G0 Y10.161 Z11.000 
G1 X28.750 Y10.161 Z5.500 
G1 X28.661 Y10.250 Z5.500 
G0 Z13.000 
G0 X28.750 Y9.325 Z13.000 
G0 X28.750 Y9.325 Z11.000 
G1 X28.750 Y9.325 Z5.500 
G1 X2.675 Y-16.750 Z5.500 
G0 Z13.000 
G0 X2.716 Z13.000 
G0 X2.716 Z11.000 
G1 X2.716 Y-16.750 Z5.500 
G1 X28.750 Y9.284 Z5.500 
G0 Z13.000 
G0 Y7.557 Z13.000 
G0 Y7.557 Z11.000 
G1 X28.750 Y7.557 Z5.500 
G1 X4.443 Y-16.750 Z5.500 
G0 Z13.000 
G0 X4.483 Z13.000 
G0 X4.483 Z11.000 
G1 X4.483 Y-16.750 Z5.500 
G1 X28.750 Y7.517 Z5.500 
G0 Z13.000 
G0 Y5.789 Z13.000 
G0 Y5.789 Z11.000 
G1 X28.750 Y5.789 Z5.500 
G1 X25.711 Y2.750 Z5.500 
G0 Z13.000 
G0 X25.751 Z13.000 
G0 X25.751 Z11.000 
G1 X25.751 Y2.750 Z5.500 
G1 X28.750 Y5.749 Z5.500 
G0 Z13.000 
G0 Y4.858 Z13.000 
G0 Y4.858 Z11.000 
G1 X28.750 Y4.858 Z5.500 
G1 X16.858 Y16.750 Z5.500 
G0 Z13.000 
G0 X16.817 Z13.000 
G0 X16.817 Z11.000 
G1 X16.817 Y16.750 Z5.500 
G1 X28.750 Y4.817 Z5.500 
G0 Z13.000 
G0 Y4.021 Z13.000 
G0 Y4.021 Z11.000 
G1 X28.750 Y4.021 Z5.500 
G1 X27.479 Y2.750 Z5.500 
G0 Z13.000 
G0 X27.519 Z13.000 
G0 X27.519 Z11.000 
G1 X27.519 Y2.750 Z5.500 
G1 X28.750 Y3.981 Z5.500 
G0 Z13.000 
G0 Y3.090 Z13.000 
G0 Y3.090 Z11.000 
G1 X28.750 Y3.090 Z5.500 
G1 X15.090 Y16.750 Z5.500 
G0 Z13.000 
G0 X15.050 Z13.000 
G0 X15.050 Z11.000 
G1 X15.050 Y16.750 Z5.500 
G1 X28.750 Y3.050 Z5.500 
G0 Z13.000 
G0 X27.322 Y2.750 Z13.000 
G0 X27.322 Y2.750 Z11.000 
G1 X27.322 Y2.750 Z5.500 
G1 X13.322 Y16.750 Z5.500 
G0 Z13.000 
G0 X13.282 Z13.000 
G0 X13.282 Z11.000 
G1 X13.282 Y16.750 Z5.500 
G1 X27.282 Y2.750 Z5.500 
G0 Z13.000 
G0 X25.554 Z13.000 
G0 X25.554 Z11.000 
G1 X25.554 Y2.750 Z5.500 
G1 X11.554 Y16.750 Z5.500 
G0 Z13.000 
G0 X11.514 Z13.000 
G0 X11.514 Z11.000 
G1 X11.514 Y16.750 Z5.500 
G1 X25.514 Y2.750 Z5.500 
G0 Z13.000 
G0 X24.139 Y2.397 Z13.000 
G0 X24.139 Y2.397 Z11.000 
G1 X24.139 Y2.397 Z5.500 
G1 X9.787 Y16.750 Z5.500 
G0 Z13.000 
G0 X9.746 Z13.000 
G0 X9.746 Z11.000 
G1 X9.746 Y16.750 Z5.500 
G1 X24.117 Y2.379 Z5.500 
G0 Z13.000 
G0 X23.750 Y1.019 Z13.000 
G0 X23.750 Y1.019 Z11.000 
G1 X23.750 Y1.019 Z5.500 
G1 X8.019 Y16.750 Z5.500 
G0 Z13.000 
G0 X7.979 Z13.000 
G0 X7.979 Z11.000 
G1 X7.979 Y16.750 Z5.500 
G1 X23.750 Y0.979 Z5.500 
G0 Z13.000 
G0 Y0.789 Z13.000 
G0 Y0.789 Z11.000 
G1 X23.750 Y0.789 Z5.500 
G1 X6.211 Y-16.750 Z5.500 
G0 Z13.000 
G0 X6.251 Z13.000 
G0 X6.251 Z11.000 
G1 X6.251 Y-16.750 Z5.500 
G1 X23.750 Y0.749 Z5.500 
G0 Z13.000 
G0 Y-0.749 Z13.000 
G0 Y-0.749 Z11.000 
G1 X23.750 Y-0.749 Z5.500 
G1 X6.251 Y16.750 Z5.500 
G0 Z13.000 
G0 X6.211 Z13.000 
G0 X6.211 Z11.000 
G1 X6.211 Y16.750 Z5.500 
G1 X23.750 Y-0.789 Z5.500 
G0 Z13.000 
G0 Y-0.979 Z13.000 
G0 Y-0.979 Z11.000 
G1 X23.750 Y-0.979 Z5.500 
G1 X7.979 Y-16.750 Z5.500 
G0 Z13.000 
G0 X8.019 Z13.000 
G0 X8.019 Z11.000 
G1 X8.019 Y-16.750 Z5.500 
G1 X23.750 Y-1.019 Z5.500 
G0 Z13.000 
G0 Y-2.517 Z13.000 
G0 Y-2.517 Z11.000 
G1 X23.750 Y-2.517 Z5.500 
G1 X4.483 Y16.750 Z5.500 
G0 Z13.000 
G0 X4.443 Z13.000 
G0 X4.443 Z11.000 
G1 X4.443 Y16.750 Z5.500 
G1 X23.750 Y-2.557 Z5.500 
G0 Z13.000 
G0 Y-2.746 Z13.000 
G0 Y-2.746 Z11.000 
G1 X23.750 Y-2.746 Z5.500 
G1 X9.746 Y-16.750 Z5.500 
G0 Z13.000 
G0 X9.787 Z13.000 
G0 X9.787 Z11.000 
G1 X9.787 Y-16.750 Z5.500 
G1 X23.750 Y-2.787 Z5.500 
G0 Z13.000 
G0 Y-4.284 Z13.000 
G0 Y-4.284 Z11.000 
G1 X23.750 Y-4.284 Z5.500 
G1 X2.716 Y16.750 Z5.500 
G0 Z13.000 
G0 X2.675 Z13.000 
G0 X2.675 Z11.000 
G1 X2.675 Y16.750 Z5.500 
G1 X23.750 Y-4.325 Z5.500 
G0 Z13.000 
G0 Y-4.514 Z13.000 
G0 Y-4.514 Z11.000 
G1 X23.750 Y-4.514 Z5.500 
G1 X11.514 Y-16.750 Z5.500 
G0 Z13.000 
G0 X11.554 Z13.000 
G0 X11.554 Z11.000 
G1 X11.554 Y-16.750 Z5.500 
G1 X23.750 Y-4.554 Z5.500 
G0 Z13.000 
G0 Y-6.052 Z13.000 
G0 Y-6.052 Z11.000 
G1 X23.750 Y-6.052 Z5.500 
G1 X0.948 Y16.750 Z5.500 
G0 Z13.000 
G0 X0.907 Z13.000 
G0 X0.907 Z11.000 
G1 X0.907 Y16.750 Z5.500 
G1 X23.750 Y-6.093 Z5.500 
G0 Z13.000 
G0 Y-6.282 Z13.000 
G0 Y-6.282 Z11.000 
G1 X23.750 Y-6.282 Z5.500 
G1 X13.282 Y-16.750 Z5.500 
G0 Z13.000 
G0 X13.322 Z13.000 
G0 X13.322 Z11.000 
G1 X13.322 Y-16.750 Z5.500 
G1 X23.750 Y-6.322 Z5.500 
G0 Z13.000 
G0 Y-7.820 Z13.000 
G0 Y-7.820 Z11.000 
G1 X23.750 Y-7.820 Z5.500 
G1 X-0.820 Y16.750 Z5.500 
G0 Z13.000 
G0 X-0.860 Z13.000 
G0 X-0.860 Z11.000 
G1 X-0.860 Y16.750 Z5.500 
G1 X23.750 Y-7.860 Z5.500 
G0 Z13.000 
G0 Y-8.050 Z13.000 
G0 Y-8.050 Z11.000 
G1 X23.750 Y-8.050 Z5.500 
G1 X15.050 Y-16.750 Z5.500 
G0 Z13.000 
G0 X15.090 Z13.000 
G0 X15.090 Z11.000 
G1 X15.090 Y-16.750 Z5.500 
G1 X23.750 Y-8.090 Z5.500 
G0 Z13.000 
G0 Y-9.588 Z13.000 
G0 Y-9.588 Z11.000 
G1 X23.750 Y-9.588 Z5.500 
G1 X-2.588 Y16.750 Z5.500 
G0 Z13.000 
G0 X-2.628 Z13.000 
G0 X-2.628 Z11.000 
G1 X-2.628 Y16.750 Z5.500 
G1 X23.750 Y-9.628 Z5.500 
G0 Z13.000 
G0 Y-9.817 Z13.000 
G0 Y-9.817 Z11.000 
G1 X23.750 Y-9.817 Z5.500 
G1 X16.817 Y-16.750 Z5.500 
G0 Z13.000 
G0 X16.858 Z13.000 
G0 X16.858 Z11.000 
G1 X16.858 Y-16.750 Z5.500 
G1 X23.750 Y-9.858 Z5.500 
G0 Z13.000 
G0 Y-11.355 Z13.000 
G0 Y-11.355 Z11.000 
G1 X23.750 Y-11.355 Z5.500 
G1 X-4.355 Y16.750 Z5.500 
G0 Z13.000 
G0 X-4.396 Z13.000 
G0 X-4.396 Z11.000 
G1 X-4.396 Y16.750 Z5.500 
G1 X23.750 Y-11.396 Z5.500 
G0 Z13.000 
G0 Y-11.585 Z13.000 
G0 Y-11.585 Z11.000 
G1 X23.750 Y-11.585 Z5.500 
G1 X18.585 Y-16.750 Z5.500 
G0 Z13.000 
G0 X18.626 Z13.000 
G0 X18.626 Z11.000 
G1 X18.626 Y-16.750 Z5.500 
G1 X23.750 Y-11.626 Z5.500 
G0 Z13.000 
G0 Y-13.123 Z13.000 
G0 Y-13.123 Z11.000 
G1 X23.750 Y-13.123 Z5.500 
G1 X-6.123 Y16.750 Z5.500 
G0 Z13.000 
G0 X-6.164 Z13.000 
G0 X-6.164 Z11.000 
G1 X-6.164 Y16.750 Z5.500 
G1 X23.750 Y-13.164 Z5.500 
G0 Z13.000 
G0 Y-13.353 Z13.000 
G0 Y-13.353 Z11.000 
G1 X23.750 Y-13.353 Z5.500 
G1 X20.353 Y-16.750 Z5.500 
G0 Z13.000 
G0 X20.393 Z13.000 
G0 X20.393 Z11.000 
G1 X20.393 Y-16.750 Z5.500 
G1 X23.750 Y-13.393 Z5.500 
G0 Z13.000 
G0 Y-14.891 Z13.000 
G0 Y-14.891 Z11.000 
G1 X23.750 Y-14.891 Z5.500 
G1 X-7.891 Y16.750 Z5.500 
G0 Z13.000 
G0 X-7.931 Z13.000 
G0 X-7.931 Z11.000 
G1 X-7.931 Y16.750 Z5.500 
G1 X23.750 Y-14.931 Z5.500 
G0 Z13.000 
G0 Y-15.121 Z13.000 
G0 Y-15.121 Z11.000 
G1 X23.750 Y-15.121 Z5.500 
G1 X22.121 Y-16.750 Z5.500 
G0 Z13.000 
G0 X22.161 Z13.000 
G0 X22.161 Z11.000 
G1 X22.161 Y-16.750 Z5.500 
G1 X23.750 Y-15.161 Z5.500 
G0 Z13.000 
G0 Y-16.659 Z13.000 
G0 Y-16.659 Z11.000 
G1 X23.750 Y-16.659 Z5.500 
G1 X-9.659 Y16.750 Z5.500 
G0 Z13.000 
G0 X-9.699 Z13.000 
G0 X-9.699 Z11.000 
G1 X-9.699 Y16.750 Z5.500 
G1 X23.750 Y-16.699 Z5.500 
G0 Z13.000 
G0 X22.074 Y-16.750 Z13.000 
G0 X22.074 Y-16.750 Z11.000 
G1 X22.074 Y-16.750 Z5.500 
G1 X-11.426 Y16.750 Z5.500 
G0 Z13.000 
G0 X-11.467 Z13.000 
G0 X-11.467 Z11.000 
G1 X-11.467 Y16.750 Z5.500 
G1 X22.033 Y-16.750 Z5.500 
G0 Z13.000 
G0 X20.306 Z13.000 
G0 X20.306 Z11.000 
G1 X20.306 Y-16.750 Z5.500 
G1 X-13.194 Y16.750 Z5.500 
G0 Z13.000 
G0 X-13.235 Z13.000 
G0 X-13.235 Z11.000 
G1 X-13.235 Y16.750 Z5.500 
G1 X20.265 Y-16.750 Z5.500 
G0 Z13.000 
G0 X18.538 Z13.000 
G0 X18.538 Z11.000 
G1 X18.538 Y-16.750 Z5.500 
G1 X-14.962 Y16.750 Z5.500 
G0 Z13.000 
G0 X-15.002 Z13.000 
G0 X-15.002 Z11.000 
G1 X-15.002 Y16.750 Z5.500 
G1 X18.498 Y-16.750 Z5.500 
G0 Z13.000 
G0 X16.770 Z13.000 
G0 X16.770 Z11.000 
G1 X16.770 Y-16.750 Z5.500 
G1 X-16.730 Y16.750 Z5.500 
G0 Z13.000 
G0 X-16.770 Z13.000 
G0 X-16.770 Z11.000 
G1 X-16.770 Y16.750 Z5.500 
G1 X16.730 Y-16.750 Z5.500 
G0 Z13.000 
G0 X15.002 Z13.000 
G0 X15.002 Z11.000 
G1 X15.002 Y-16.750 Z5.500 
G1 X-18.498 Y16.750 Z5.500 
G0 Z13.000 
G0 X-18.538 Z13.000 
G0 X-18.538 Z11.000 
G1 X-18.538 Y16.750 Z5.500 
G1 X14.962 Y-16.750 Z5.500 
G0 Z13.000 
G0 X13.235 Z13.000 
G0 X13.235 Z11.000 
G1 X13.235 Y-16.750 Z5.500 
G1 X-20.265 Y16.750 Z5.500 
G0 Z13.000 
G0 X-20.306 Z13.000 
G0 X-20.306 Z11.000 
G1 X-20.306 Y16.750 Z5.500 
G1 X13.194 Y-16.750 Z5.500 
G0 Z13.000 
G0 X11.467 Z13.000 
G0 X11.467 Z11.000 
G1 X11.467 Y-16.750 Z5.500 
G1 X-22.033 Y16.750 Z5.500 
G0 Z13.000 
G0 X-22.074 Z13.000 
G0 X-22.074 Z11.000 
G1 X-22.074 Y16.750 Z5.500 
G1 X11.426 Y-16.750 Z5.500 
G0 Z13.000 
G0 X9.699 Z13.000 
G0 X9.699 Z11.000 
G1 X9.699 Y-16.750 Z5.500 
G1 X-23.801 Y16.750 Z5.500 
G0 Z13.000 
G0 X-23.841 Z13.000 
G0 X-23.841 Z11.000 
G1 X-23.841 Y16.750 Z5.500 
G1 X9.659 Y-16.750 Z5.500 
G0 Z13.000 
G0 X7.931 Z13.000 
G0 X7.931 Z11.000 
G1 X7.931 Y-16.750 Z5.500 
G1 X-25.569 Y16.750 Z5.500 
G0 Z13.000 
G0 X-25.609 Z13.000 
G0 X-25.609 Z11.000 
G1 X-25.609 Y16.750 Z5.500 
G1 X7.891 Y-16.750 Z5.500 
G0 Z13.000 
G0 X6.164 Z13.000 
G0 X6.164 Z11.000 
G1 X6.164 Y-16.750 Z5.500 
G1 X-27.336 Y16.750 Z5.500 
G0 Z13.000 
G0 X-27.377 Z13.000 
G0 X-27.377 Z11.000 
G1 X-27.377 Y16.750 Z5.500 
G1 X6.123 Y-16.750 Z5.500 
G0 Z13.000 
G0 X4.396 Z13.000 
G0 X4.396 Z11.000 
G1 X4.396 Y-16.750 Z5.500 
G1 X-28.750 Y16.396 Z5.500 
G0 Z13.000 
G0 Y16.355 Z13.000 
G0 Y16.355 Z11.000 
G1 X-28.750 Y16.355 Z5.500 
G1 X4.355 Y-16.750 Z5.500 
G0 Z13.000 
G0 X2.628 Z13.000 
G0 X2.628 Z11.000 
G1 X2.628 Y-16.750 Z5.500 
G1 X-28.750 Y14.628 Z5.500 
G0 Z13.000 
G0 Y14.588 Z13.000 
G0 Y14.588 Z11.000 
G1 X-28.750 Y14.588 Z5.500 
G1 X2.588 Y-16.750 Z5.500 
G0 Z13.000 
G0 X0.860 Z13.000 
G0 X0.860 Z11.000 
G1 X0.860 Y-16.750 Z5.500 
G1 X-28.750 Y12.860 Z5.500 
G0 Z13.000 
G0 Y12.820 Z13.000 
G0 Y12.820 Z11.000 
G1 X-28.750 Y12.820 Z5.500 
G1 X0.820 Y-16.750 Z5.500 
G0 Z13.000 
G0 X-0.907 Z13.000 
G0 X-0.907 Z11.000 
G1 X-0.907 Y-16.750 Z5.500 
G1 X-28.750 Y11.093 Z5.500 
G0 Z13.000 
G0 Y11.052 Z13.000 
G0 Y11.052 Z11.000 
G1 X-28.750 Y11.052 Z5.500 
G1 X-0.948 Y-16.750 Z5.500 
G0 Z13.000 
G0 X-2.675 Z13.000 
G0 X-2.675 Z11.000 
G1 X-2.675 Y-16.750 Z5.500 
G1 X-28.750 Y9.325 Z5.500 
G0 Z13.000 
G0 Y9.284 Z13.000 
G0 Y9.284 Z11.000 
G1 X-28.750 Y9.284 Z5.500 
G1 X-2.716 Y-16.750 Z5.500 
G0 Z13.000 
G0 X-4.443 Z13.000 
G0 X-4.443 Z11.000 
G1 X-4.443 Y-16.750 Z5.500 
G1 X-28.750 Y7.557 Z5.500 
G0 Z13.000 
G0 Y7.517 Z13.000 
G0 Y7.517 Z11.000 
G1 X-28.750 Y7.517 Z5.500 
G1 X-4.483 Y-16.750 Z5.500 
G0 Z13.000 
G0 X-6.211 Z13.000 
G0 X-6.211 Z11.000 
G1 X-6.211 Y-16.750 Z5.500 
G1 X-28.750 Y5.789 Z5.500 
G0 Z13.000 
G0 Y5.749 Z13.000 
G0 Y5.749 Z11.000 
G1 X-28.750 Y5.749 Z5.500 
G1 X-6.251 Y-16.750 Z5.500 
G0 Z13.000 
G0 X-7.979 Z13.000 
G0 X-7.979 Z11.000 
G1 X-7.979 Y-16.750 Z5.500 
G1 X-28.750 Y4.021 Z5.500 
G0 Z13.000 
G0 Y3.981 Z13.000 
G0 Y3.981 Z11.000 
G1 X-28.750 Y3.981 Z5.500 
G1 X-8.019 Y-16.750 Z5.500 
G0 Z13.000 
G0 X-9.746 Z13.000 
G0 X-9.746 Z11.000 
G1 X-9.746 Y-16.750 Z5.500 
G1 X-28.750 Y2.254 Z5.500 
G0 Z13.000 
G0 Y2.213 Z13.000 
G0 Y2.213 Z11.000 
G1 X-28.750 Y2.213 Z5.500 
G1 X-9.787 Y-16.750 Z5.500 
G0 Z13.000 
G0 X-11.426 Z13.000 
G0 X-11.426 Z11.000 
G1 X-11.426 Y-16.750 Z5.500 
G1 X22.074 Y16.750 Z5.500 
G0 Z13.000 
G0 X22.033 Z13.000 
G0 X22.033 Z11.000 
G1 X22.033 Y16.750 Z5.500 
G1 X-11.467 Y-16.750 Z5.500 
G0 Z13.000 
G0 X-11.514 Z13.000 
G0 X-11.514 Z11.000 
G1 X-11.514 Y-16.750 Z5.500 
G1 X-28.750 Y0.486 Z5.500 
G0 Z13.000 
G0 Y0.446 Z13.000 
G0 Y0.446 Z11.000 
G1 X-28.750 Y0.446 Z5.500 
G1 X-11.554 Y-16.750 Z5.500 
G0 Z13.000 
G0 X-13.194 Z13.000 
G0 X-13.194 Z11.000 
G1 X-13.194 Y-16.750 Z5.500 
G1 X20.306 Y16.750 Z5.500 
G0 Z13.000 
G0 X20.265 Z13.000 
G0 X20.265 Z11.000 
G1 X20.265 Y16.750 Z5.500 
G1 X-13.235 Y-16.750 Z5.500 
G0 Z13.000 
G0 X-13.282 Z13.000 
G0 X-13.282 Z11.000 
G1 X-13.282 Y-16.750 Z5.500 
G1 X-28.750 Y-1.282 Z5.500 
G0 Z13.000 
G0 Y-1.322 Z13.000 
G0 Y-1.322 Z11.000 
G1 X-28.750 Y-1.322 Z5.500 
G1 X-13.322 Y-16.750 Z5.500 
G0 Z13.000 
G0 X-14.962 Z13.000 
G0 X-14.962 Z11.000 
G1 X-14.962 Y-16.750 Z5.500 
G1 X18.538 Y16.750 Z5.500 
G0 Z13.000 
G0 X18.498 Z13.000 
G0 X18.498 Z11.000 
G1 X18.498 Y16.750 Z5.500 
G1 X-15.002 Y-16.750 Z5.500 
G0 Z13.000 
G0 X-15.050 Z13.000 
G0 X-15.050 Z11.000 
G1 X-15.050 Y-16.750 Z5.500 
G1 X-28.750 Y-3.050 Z5.500 
G0 Z13.000 
G0 Y-3.090 Z13.000 
G0 Y-3.090 Z11.000 
G1 X-28.750 Y-3.090 Z5.500 
G1 X-15.090 Y-16.750 Z5.500 
G0 Z13.000 
G0 X-16.730 Z13.000 
G0 X-16.730 Z11.000 
G1 X-16.730 Y-16.750 Z5.500 
G1 X16.770 Y16.750 Z5.500 
G0 Z13.000 
G0 X16.730 Z13.000 
G0 X16.730 Z11.000 
G1 X16.730 Y16.750 Z5.500 
G1 X-16.770 Y-16.750 Z5.500 
G0 Z13.000 
G0 X-16.817 Z13.000 
G0 X-16.817 Z11.000 
G1 X-16.817 Y-16.750 Z5.500 
G1 X-28.750 Y-4.817 Z5.500 
G0 Z13.000 
G0 Y-4.858 Z13.000 
G0 Y-4.858 Z11.000 
G1 X-28.750 Y-4.858 Z5.500 
G1 X-16.858 Y-16.750 Z5.500 
G0 Z13.000 
G0 X-18.498 Z13.000 
G0 X-18.498 Z11.000 
G1 X-18.498 Y-16.750 Z5.500 
G1 X15.002 Y16.750 Z5.500 
G0 Z13.000 
G0 X14.962 Z13.000 
G0 X14.962 Z11.000 
G1 X14.962 Y16.750 Z5.500 
G1 X-18.538 Y-16.750 Z5.500 
G0 Z13.000 
G0 X-18.585 Z13.000 
G0 X-18.585 Z11.000 
G1 X-18.585 Y-16.750 Z5.500 
G1 X-28.750 Y-6.585 Z5.500 
G0 Z13.000 
G0 Y-6.626 Z13.000 
G0 Y-6.626 Z11.000 
G1 X-28.750 Y-6.626 Z5.500 
G1 X-18.626 Y-16.750 Z5.500 
G0 Z13.000 
G0 X-20.265 Z13.000 
G0 X-20.265 Z11.000 
G1 X-20.265 Y-16.750 Z5.500 
G1 X13.235 Y16.750 Z5.500 
G0 Z13.000 
G0 X13.194 Z13.000 
G0 X13.194 Z11.000 
G1 X13.194 Y16.750 Z5.500 
G1 X-20.306 Y-16.750 Z5.500 
G0 Z13.000 
G0 X-20.353 Z13.000 
G0 X-20.353 Z11.000 
G1 X-20.353 Y-16.750 Z5.500 
G1 X-28.750 Y-8.353 Z5.500 
G0 Z13.000 
G0 Y-8.393 Z13.000 
G0 Y-8.393 Z11.000 
G1 X-28.750 Y-8.393 Z5.500 
G1 X-20.393 Y-16.750 Z5.500 
G0 Z13.000 
G0 X-22.033 Z13.000 
G0 X-22.033 Z11.000 
G1 X-22.033 Y-16.750 Z5.500 
G1 X11.467 Y16.750 Z5.500 
G0 Z13.000 
G0 X11.426 Z13.000 
G0 X11.426 Z11.000 
G1 X11.426 Y16.750 Z5.500 
G1 X-22.074 Y-16.750 Z5.500 
G0 Z13.000 
G0 X-22.121 Z13.000 
G0 X-22.121 Z11.000 
G1 X-22.121 Y-16.750 Z5.500 
G1 X-28.750 Y-10.121 Z5.500 
G0 Z13.000 
G0 Y-10.161 Z13.000 
G0 Y-10.161 Z11.000 
G1 X-28.750 Y-10.161 Z5.500 
G1 X-22.161 Y-16.750 Z5.500 
G0 Z13.000 
G0 X-23.801 Z13.000 
G0 X-23.801 Z11.000 
G1 X-23.801 Y-16.750 Z5.500 
G1 X9.699 Y16.750 Z5.500 
G0 Z13.000 
G0 X9.659 Z13.000 
G0 X9.659 Z11.000 
G1 X9.659 Y16.750 Z5.500 
G1 X-23.841 Y-16.750 Z5.500 
G0 Z13.000 
G0 X-23.888 Z13.000 
G0 X-23.888 Z11.000 
G1 X-23.888 Y-16.750 Z5.500 
G1 X-28.750 Y-11.888 Z5.500 
G0 Z13.000 
G0 Y-11.929 Z13.000 
G0 Y-11.929 Z11.000 
G1 X-28.750 Y-11.929 Z5.500 
G1 X-23.929 Y-16.750 Z5.500 
G0 Z13.000 
G0 X-25.569 Z13.000 
G0 X-25.569 Z11.000 
G1 X-25.569 Y-16.750 Z5.500 
G1 X7.931 Y16.750 Z5.500 
G0 Z13.000 
G0 X7.891 Z13.000 
G0 X7.891 Z11.000 
G1 X7.891 Y16.750 Z5.500 
G1 X-25.609 Y-16.750 Z5.500 
G0 Z13.000 
G0 X-25.656 Z13.000 
G0 X-25.656 Z11.000 
G1 X-25.656 Y-16.750 Z5.500 
G1 X-28.750 Y-13.656 Z5.500 
G0 Z13.000 
G0 Y-13.697 Z13.000 
G0 Y-13.697 Z11.000 
G1 X-28.750 Y-13.697 Z5.500 
G1 X-25.697 Y-16.750 Z5.500 
G0 Z13.000 
G0 X-27.336 Z13.000 
G0 X-27.336 Z11.000 
G1 X-27.336 Y-16.750 Z5.500 
G1 X6.164 Y16.750 Z5.500 
G0 Z13.000 
G0 X6.123 Z13.000 
G0 X6.123 Z11.000 
G1 X6.123 Y16.750 Z5.500 
G1 X-27.377 Y-16.750 Z5.500 
G0 Z13.000 
G0 X-27.424 Z13.000 
G0 X-27.424 Z11.000 
G1 X-27.424 Y-16.750 Z5.500 
G1 X-28.750 Y-15.424 Z5.500 
G0 Z13.000 
G0 Y-15.464 Z13.000 
G0 Y-15.464 Z11.000 
G1 X-28.750 Y-15.464 Z5.500 
G1 X-27.464 Y-16.750 Z5.500 
G0 Z13.000 
G0 X-28.750 Y-16.396 Z13.000 
G0 X-28.750 Y-16.396 Z11.000 
G1 X-28.750 Y-16.396 Z5.500 
G1 X4.396 Y16.750 Z5.500 
G0 Z13.000 
G0 X4.355 Z13.000 
G0 X4.355 Z11.000 
G1 X4.355 Y16.750 Z5.500 
G1 X-28.750 Y-16.355 Z5.500 
G0 Z13.000 
G0 Y-14.628 Z13.000 
G0 Y-14.628 Z11.000 
G1 X-28.750 Y-14.628 Z5.500 
G1 X2.628 Y16.750 Z5.500 
G0 Z13.000 
G0 X2.588 Z13.000 
G0 X2.588 Z11.000 
G1 X2.588 Y16.750 Z5.500 
G1 X-28.750 Y-14.588 Z5.500 
G0 Z13.000 
G0 Y-12.860 Z13.000 
G0 Y-12.860 Z11.000 
G1 X-28.750 Y-12.860 Z5.500 
G1 X0.860 Y16.750 Z5.500 
G0 Z13.000 
G0 X0.820 Z13.000 
G0 X0.820 Z11.000 
G1 X0.820 Y16.750 Z5.500 
G1 X-28.750 Y-12.820 Z5.500 
G0 Z13.000 
G0 Y-11.093 Z13.000 
G0 Y-11.093 Z11.000 
G1 X-28.750 Y-11.093 Z5.500 
G1 X-0.907 Y16.750 Z5.500 
G0 Z13.000 
G0 X-0.948 Z13.000 
G0 X-0.948 Z11.000 
G1 X-0.948 Y16.750 Z5.500 
G1 X-28.750 Y-11.052 Z5.500 
G0 Z13.000 
G0 Y-9.325 Z13.000 
G0 Y-9.325 Z11.000 
G1 X-28.750 Y-9.325 Z5.500 
G1 X-2.675 Y16.750 Z5.500 
G0 Z13.000 
G0 X-2.716 Z13.000 
G0 X-2.716 Z11.000 
G1 X-2.716 Y16.750 Z5.500 
G1 X-28.750 Y-9.284 Z5.500 
G0 Z13.000 
G0 Y-7.557 Z13.000 
G0 Y-7.557 Z11.000 
G1 X-28.750 Y-7.557 Z5.500 
G1 X-4.443 Y16.750 Z5.500 
G0 Z13.000 
G0 X-4.483 Z13.000 
G0 X-4.483 Z11.000 
G1 X-4.483 Y16.750 Z5.500 
G1 X-28.750 Y-7.517 Z5.500 
G0 Z13.000 
G0 Y-5.789 Z13.000 
G0 Y-5.789 Z11.000 
G1 X-28.750 Y-5.789 Z5.500 
G1 X-6.211 Y16.750 Z5.500 
G0 Z13.000 
G0 X-6.251 Z13.000 
G0 X-6.251 Z11.000 
G1 X-6.251 Y16.750 Z5.500 
G1 X-28.750 Y-5.749 Z5.500 
G0 Z13.000 
G0 Y-4.021 Z13.000 
G0 Y-4.021 Z11.000 
G1 X-28.750 Y-4.021 Z5.500 
G1 X-7.979 Y16.750 Z5.500 
G0 Z13.000 
G0 X-8.019 Z13.000 
G0 X-8.019 Z11.000 
G1 X-8.019 Y16.750 Z5.500 
G1 X-28.750 Y-3.981 Z5.500 
G0 Z13.000 
G0 Y-2.254 Z13.000 
G0 Y-2.254 Z11.000 
G1 X-28.750 Y-2.254 Z5.500 
G1 X-9.746 Y16.750 Z5.500 
G0 Z13.000 
G0 X-9.787 Z13.000 
G0 X-9.787 Z11.000 
G1 X-9.787 Y16.750 Z5.500 
G1 X-28.750 Y-2.213 Z5.500 
G0 Z13.000 
G0 Y-0.486 Z13.000 
G0 Y-0.486 Z11.000 
G1 X-28.750 Y-0.486 Z5.500 
G1 X-11.514 Y16.750 Z5.500 
G0 Z13.000 
G0 X-11.554 Z13.000 
G0 X-11.554 Z11.000 
G1 X-11.554 Y16.750 Z5.500 
G1 X-28.750 Y-0.446 Z5.500 
G0 Z13.000 
G0 Y1.282 Z13.000 
G0 Y1.282 Z11.000 
G1 X-28.750 Y1.282 Z5.500 
G1 X-13.282 Y16.750 Z5.500 
G0 Z13.000 
G0 X-13.322 Z13.000 
G0 X-13.322 Z11.000 
G1 X-13.322 Y16.750 Z5.500 
G1 X-28.750 Y1.322 Z5.500 
G0 Z13.000 
G0 Y3.050 Z13.000 
G0 Y3.050 Z11.000 
G1 X-28.750 Y3.050 Z5.500 
G1 X-15.050 Y16.750 Z5.500 
G0 Z13.000 
G0 X-15.090 Z13.000 
G0 X-15.090 Z11.000 
G1 X-15.090 Y16.750 Z5.500 
G1 X-28.750 Y3.090 Z5.500 
G0 Z13.000 
G0 Y4.817 Z13.000 
G0 Y4.817 Z11.000 
G1 X-28.750 Y4.817 Z5.500 
G1 X-16.817 Y16.750 Z5.500 
G0 Z13.000 
G0 X-16.858 Z13.000 
G0 X-16.858 Z11.000 
G1 X-16.858 Y16.750 Z5.500 
G1 X-28.750 Y4.858 Z5.500 
G0 Z13.000 
G0 Y6.585 Z13.000 
G0 Y6.585 Z11.000 
G1 X-28.750 Y6.585 Z5.500 
G1 X-18.585 Y16.750 Z5.500 
G0 Z13.000 
G0 X-18.626 Z13.000 
G0 X-18.626 Z11.000 
G1 X-18.626 Y16.750 Z5.500 
G1 X-28.750 Y6.626 Z5.500 
G0 Z13.000 
G0 Y8.353 Z13.000 
G0 Y8.353 Z11.000 
G1 X-28.750 Y8.353 Z5.500 
G1 X-20.353 Y16.750 Z5.500 
G0 Z13.000 
G0 X-20.393 Z13.000 
G0 X-20.393 Z11.000 
G1 X-20.393 Y16.750 Z5.500 
G1 X-28.750 Y8.393 Z5.500 
G0 Z13.000 
G0 Y10.121 Z13.000 
G0 Y10.121 Z11.000 
G1 X-28.750 Y10.121 Z5.500 
G1 X-22.121 Y16.750 Z5.500 
G0 Z13.000 
G0 X-22.161 Z13.000 
G0 X-22.161 Z11.000 
G1 X-22.161 Y16.750 Z5.500 
G1 X-28.750 Y10.161 Z5.500 
G0 Z13.000 
G0 Y11.888 Z13.000 
G0 Y11.888 Z11.000 
G1 X-28.750 Y11.888 Z5.500 
G1 X-23.888 Y16.750 Z5.500 
G0 Z13.000 
G0 X-23.929 Z13.000 
G0 X-23.929 Z11.000 
G1 X-23.929 Y16.750 Z5.500 
G1 X-28.750 Y11.929 Z5.500 
G0 Z13.000 
G0 Y13.656 Z13.000 
G0 Y13.656 Z11.000 
G1 X-28.750 Y13.656 Z5.500 
G1 X-25.656 Y16.750 Z5.500 
G0 Z13.000 
G0 X-25.697 Z13.000 
G0 X-25.697 Z11.000 
G1 X-25.697 Y16.750 Z5.500 
G1 X-28.750 Y13.697 Z5.500 
G0 Z13.000 
G0 Y15.424 Z13.000 
G0 Y15.424 Z11.000 
G1 X-28.750 Y15.424 Z5.500 
G1 X-27.424 Y16.750 Z5.500 
G0 Z13.000 
G0 X-27.464 Z13.000 
G0 X-27.464 Z11.000 
G1 X-27.464 Y16.750 Z5.500 
G1 X-28.750 Y15.464 Z5.500 
G1 X-28.750 Y15.464 Z3.000 
G1 X-27.464 Y16.750 Z3.000 
G0 Z13.000 
G0 X-27.424 Z13.000 
G0 X-27.424 Z11.000 
G1 X-27.424 Y16.750 Z3.000 
G1 X-28.750 Y15.424 Z3.000 
G0 Z13.000 
G0 Y14.628 Z13.000 
G0 Y14.628 Z11.000 
G1 X-28.750 Y14.628 Z3.000 
G1 X2.628 Y-16.750 Z3.000 
G0 Z13.000 
G0 X2.588 Z13.000 
G0 X2.588 Z11.000 
G1 X2.588 Y-16.750 Z3.000 
G1 X-28.750 Y14.588 Z3.000 
G0 Z13.000 
G0 Y13.697 Z13.000 
G0 Y13.697 Z11.000 
G1 X-28.750 Y13.697 Z3.000 
G1 X-25.697 Y16.750 Z3.000 
G0 Z13.000 
G0 X-25.656 Z13.000 
G0 X-25.656 Z11.000 
G1 X-25.656 Y16.750 Z3.000 
G1 X-28.750 Y13.656 Z3.000 
G0 Z13.000 
G0 Y12.860 Z13.000 
G0 Y12.860 Z11.000 
G1 X-28.750 Y12.860 Z3.000 
G1 X0.860 Y-16.750 Z3.000 
G0 Z13.000 
G0 X0.820 Z13.000 
G0 X0.820 Z11.000 
G1 X0.820 Y-16.750 Z3.000 
G1 X-28.750 Y12.820 Z3.000 
G0 Z13.000 
G0 Y11.929 Z13.000 
G0 Y11.929 Z11.000 
G1 X-28.750 Y11.929 Z3.000 
G1 X-23.929 Y16.750 Z3.000 
G0 Z13.000 
G0 X-23.888 Z13.000 
G0 X-23.888 Z11.000 
G1 X-23.888 Y16.750 Z3.000 
G1 X-28.750 Y11.888 Z3.000 
G0 Z13.000 
G0 Y11.093 Z13.000 
G0 Y11.093 Z11.000 
G1 X-28.750 Y11.093 Z3.000 
G1 X-0.907 Y-16.750 Z3.000 
G0 Z13.000 
G0 X-0.948 Z13.000 
G0 X-0.948 Z11.000 
G1 X-0.948 Y-16.750 Z3.000 
G1 X-28.750 Y11.052 Z3.000 
G0 Z13.000 
G0 Y10.161 Z13.000 
G0 Y10.161 Z11.000 
G1 X-28.750 Y10.161 Z3.000 
G1 X-22.161 Y16.750 Z3.000 
G0 Z13.000 
G0 X-22.121 Z13.000 
G0 X-22.121 Z11.000 
G1 X-22.121 Y16.750 Z3.000 
G1 X-28.750 Y10.121 Z3.000 
G0 Z13.000 
G0 Y9.325 Z13.000 
G0 Y9.325 Z11.000 
G1 X-28.750 Y9.325 Z3.000 
G1 X-2.675 Y-16.750 Z3.000 
G0 Z13.000 
G0 X-2.716 Z13.000 
G0 X-2.716 Z11.000 
G1 X-2.716 Y-16.750 Z3.000 
G1 X-28.750 Y9.284 Z3.000 
G0 Z13.000 
G0 Y8.393 Z13.000 
G0 Y8.393 Z11.000 
G1 X-28.750 Y8.393 Z3.000 
G1 X-20.393 Y16.750 Z3.000 
G0 Z13.000 
G0 X-20.353 Z13.000 
G0 X-20.353 Z11.000 
G1 X-20.353 Y16.750 Z3.000 
G1 X-28.750 Y8.353 Z3.000 
G0 Z13.000 
G0 Y7.557 Z13.000 
G0 Y7.557 Z11.000 
G1 X-28.750 Y7.557 Z3.000 
G1 X-4.443 Y-16.750 Z3.000 
G0 Z13.000 
G0 X-4.483 Z13.000 
G0 X-4.483 Z11.000 
G1 X-4.483 Y-16.750 Z3.000 
G1 X-28.750 Y7.517 Z3.000 
G0 Z13.000 
G0 Y6.626 Z13.000 
G0 Y6.626 Z11.000 
G1 X-28.750 Y6.626 Z3.000 
G1 X-18.626 Y16.750 Z3.000 
G0 Z13.000 
G0 X-18.585 Z13.000 
G0 X-18.585 Z11.000 
G1 X-18.585 Y16.750 Z3.000 
G1 X-28.750 Y6.585 Z3.000 
G0 Z13.000 
G0 Y5.789 Z13.000 
G0 Y5.789 Z11.000 
G1 X-28.750 Y5.789 Z3.000 
G1 X-6.211 Y-16.750 Z3.000 
G0 Z13.000 
G0 X-6.251 Z13.000 
G0 X-6.251 Z11.000 
G1 X-6.251 Y-16.750 Z3.000 
G1 X-28.750 Y5.749 Z3.000 
G0 Z13.000 
G0 Y4.858 Z13.000 
G0 Y4.858 Z11.000 
G1 X-28.750 Y4.858 Z3.000 
G1 X-16.858 Y16.750 Z3.000 
G0 Z13.000 
G0 X-16.817 Z13.000 
G0 X-16.817 Z11.000 
G1 X-16.817 Y16.750 Z3.000 
G1 X-28.750 Y4.817 Z3.000 
G0 Z13.000 
G0 Y4.021 Z13.000 
G0 Y4.021 Z11.000 
G1 X-28.750 Y4.021 Z3.000 
G1 X-7.979 Y-16.750 Z3.000 
G0 Z13.000 
G0 X-8.019 Z13.000 
G0 X-8.019 Z11.000 
G1 X-8.019 Y-16.750 Z3.000 
G1 X-28.750 Y3.981 Z3.000 
G0 Z13.000 
G0 Y3.090 Z13.000 
G0 Y3.090 Z11.000 
G1 X-28.750 Y3.090 Z3.000 
G1 X-15.090 Y16.750 Z3.000 
G0 Z13.000 
G0 X-15.050 Z13.000 
G0 X-15.050 Z11.000 
G1 X-15.050 Y16.750 Z3.000 
G1 X-28.750 Y3.050 Z3.000 
G0 Z13.000 
G0 Y2.254 Z13.000 
G0 Y2.254 Z11.000 
G1 X-28.750 Y2.254 Z3.000 
G1 X-9.746 Y-16.750 Z3.000 
G0 Z13.000 
G0 X-9.787 Z13.000 
G0 X-9.787 Z11.000 
G1 X-9.787 Y-16.750 Z3.000 
G1 X-28.750 Y2.213 Z3.000 
G0 Z13.000 
G0 Y1.322 Z13.000 
G0 Y1.322 Z11.000 
G1 X-28.750 Y1.322 Z3.000 
G1 X-13.322 Y16.750 Z3.000 
G0 Z13.000 
G0 X-13.282 Z13.000 
G0 X-13.282 Z11.000 
G1 X-13.282 Y16.750 Z3.000 
G1 X-28.750 Y1.282 Z3.000 
G0 Z13.000 
G0 Y0.486 Z13.000 
G0 Y0.486 Z11.000 
G1 X-28.750 Y0.486 Z3.000 
G1 X-11.514 Y-16.750 Z3.000 
G0 Z13.000 
G0 X-11.554 Z13.000 
G0 X-11.554 Z11.000 
G1 X-11.554 Y-16.750 Z3.000 
G1 X-28.750 Y0.446 Z3.000 
G0 Z13.000 
G0 Y-0.446 Z13.000 
G0 Y-0.446 Z11.000 
G1 X-28.750 Y-0.446 Z3.000 
G1 X-11.554 Y16.750 Z3.000 
G0 Z13.000 
G0 X-11.514 Z13.000 
G0 X-11.514 Z11.000 
G1 X-11.514 Y16.750 Z3.000 
G1 X-28.750 Y-0.486 Z3.000 
G0 Z13.000 
G0 Y-1.282 Z13.000 
G0 Y-1.282 Z11.000 
G1 X-28.750 Y-1.282 Z3.000 
G1 X-13.282 Y-16.750 Z3.000 
G0 Z13.000 
G0 X-13.322 Z13.000 
G0 X-13.322 Z11.000 
G1 X-13.322 Y-16.750 Z3.000 
G1 X-28.750 Y-1.322 Z3.000 
G0 Z13.000 
G0 Y-2.213 Z13.000 
G0 Y-2.213 Z11.000 
G1 X-28.750 Y-2.213 Z3.000 
G1 X-9.787 Y16.750 Z3.000 
G0 Z13.000 
G0 X-9.746 Z13.000 
G0 X-9.746 Z11.000 
G1 X-9.746 Y16.750 Z3.000 
G1 X-28.750 Y-2.254 Z3.000 
G0 Z13.000 
G0 Y-3.050 Z13.000 
G0 Y-3.050 Z11.000 
G1 X-28.750 Y-3.050 Z3.000 
G1 X-15.050 Y-16.750 Z3.000 
G0 Z13.000 
G0 X-15.090 Z13.000 
G0 X-15.090 Z11.000 
G1 X-15.090 Y-16.750 Z3.000 
G1 X-28.750 Y-3.090 Z3.000 
G0 Z13.000 
G0 Y-3.981 Z13.000 
G0 Y-3.981 Z11.000 
G1 X-28.750 Y-3.981 Z3.000 
G1 X-8.019 Y16.750 Z3.000 
G0 Z13.000 
G0 X-7.979 Z13.000 
G0 X-7.979 Z11.000 
G1 X-7.979 Y16.750 Z3.000 
G1 X-28.750 Y-4.021 Z3.000 
G0 Z13.000 
G0 Y-4.817 Z13.000 
G0 Y-4.817 Z11.000 
G1 X-28.750 Y-4.817 Z3.000 
G1 X-16.817 Y-16.750 Z3.000 
G0 Z13.000 
G0 X-16.858 Z13.000 
G0 X-16.858 Z11.000 
G1 X-16.858 Y-16.750 Z3.000 
G1 X-28.750 Y-4.858 Z3.000 
G0 Z13.000 
G0 Y-5.749 Z13.000 
G0 Y-5.749 Z11.000 
G1 X-28.750 Y-5.749 Z3.000 
G1 X-6.251 Y16.750 Z3.000 
G0 Z13.000 
G0 X-6.211 Z13.000 
G0 X-6.211 Z11.000 
G1 X-6.211 Y16.750 Z3.000 
G1 X-28.750 Y-5.789 Z3.000 
G0 Z13.000 
G0 Y-6.585 Z13.000 
G0 Y-6.585 Z11.000 
G1 X-28.750 Y-6.585 Z3.000 
G1 X-18.585 Y-16.750 Z3.000 
G0 Z13.000 
G0 X-18.626 Z13.000 
G0 X-18.626 Z11.000 
G1 X-18.626 Y-16.750 Z3.000 
G1 X-28.750 Y-6.626 Z3.000 
G0 Z13.000 
G0 Y-7.517 Z13.000 
G0 Y-7.517 Z11.000 
G1 X-28.750 Y-7.517 Z3.000 
G1 X-4.483 Y16.750 Z3.000 
G0 Z13.000 
G0 X-4.443 Z13.000 
G0 X-4.443 Z11.000 
G1 X-4.443 Y16.750 Z3.000 
G1 X-28.750 Y-7.557 Z3.000 
G0 Z13.000 
G0 Y-8.353 Z13.000 
G0 Y-8.353 Z11.000 
G1 X-28.750 Y-8.353 Z3.000 
G1 X-20.353 Y-16.750 Z3.000 
G0 Z13.000 
G0 X-20.393 Z13.000 
G0 X-20.393 Z11.000 
G1 X-20.393 Y-16.750 Z3.000 
G1 X-28.750 Y-8.393 Z3.000 
G0 Z13.000 
G0 Y-9.284 Z13.000 
G0 Y-9.284 Z11.000 
G1 X-28.750 Y-9.284 Z3.000 
G1 X-2.716 Y16.750 Z3.000 
G0 Z13.000 
G0 X-2.675 Z13.000 
G0 X-2.675 Z11.000 
G1 X-2.675 Y16.750 Z3.000 
G1 X-28.750 Y-9.325 Z3.000 
G0 Z13.000 
G0 Y-10.121 Z13.000 
G0 Y-10.121 Z11.000 
G1 X-28.750 Y-10.121 Z3.000 
G1 X-22.121 Y-16.750 Z3.000 
G0 Z13.000 
G0 X-22.161 Z13.000 
G0 X-22.161 Z11.000 
G1 X-22.161 Y-16.750 Z3.000 
G1 X-28.750 Y-10.161 Z3.000 
G0 Z13.000 
G0 Y-11.052 Z13.000 
G0 Y-11.052 Z11.000 
G1 X-28.750 Y-11.052 Z3.000 
G1 X-0.948 Y16.750 Z3.000 
G0 Z13.000 
G0 X-0.907 Z13.000 
G0 X-0.907 Z11.000 
G1 X-0.907 Y16.750 Z3.000 
G1 X-28.750 Y-11.093 Z3.000 
G0 Z13.000 
G0 Y-11.888 Z13.000 
G0 Y-11.888 Z11.000 
G1 X-28.750 Y-11.888 Z3.000 
G1 X-23.888 Y-16.750 Z3.000 
G0 Z13.000 
G0 X-23.929 Z13.000 
G0 X-23.929 Z11.000 
G1 X-23.929 Y-16.750 Z3.000 
G1 X-28.750 Y-11.929 Z3.000 
G0 Z13.000 
G0 Y-12.820 Z13.000 
G0 Y-12.820 Z11.000 
G1 X-28.750 Y-12.820 Z3.000 
G1 X0.820 Y16.750 Z3.000 
G0 Z13.000 
G0 X0.860 Z13.000 
G0 X0.860 Z11.000 
G1 X0.860 Y16.750 Z3.000 
G1 X-28.750 Y-12.860 Z3.000 
G0 Z13.000 
G0 Y-13.656 Z13.000 
G0 Y-13.656 Z11.000 
G1 X-28.750 Y-13.656 Z3.000 
G1 X-25.656 Y-16.750 Z3.000 
G0 Z13.000 
G0 X-25.697 Z13.000 
G0 X-25.697 Z11.000 
G1 X-25.697 Y-16.750 Z3.000 
G1 X-28.750 Y-13.697 Z3.000 
G0 Z13.000 
G0 Y-14.588 Z13.000 
G0 Y-14.588 Z11.000 
G1 X-28.750 Y-14.588 Z3.000 
G1 X2.588 Y16.750 Z3.000 
G0 Z13.000 
G0 X2.628 Z13.000 
G0 X2.628 Z11.000 
G1 X2.628 Y16.750 Z3.000 
G1 X-28.750 Y-14.628 Z3.000 
G0 Z13.000 
G0 Y-15.424 Z13.000 
G0 Y-15.424 Z11.000 
G1 X-28.750 Y-15.424 Z3.000 
G1 X-27.424 Y-16.750 Z3.000 
G0 Z13.000 
G0 X-27.464 Z13.000 
G0 X-27.464 Z11.000 
G1 X-27.464 Y-16.750 Z3.000 
G1 X-28.750 Y-15.464 Z3.000 
G0 Z13.000 
G0 Y-16.355 Z13.000 
G0 Y-16.355 Z11.000 
G1 X-28.750 Y-16.355 Z3.000 
G1 X4.355 Y16.750 Z3.000 
G0 Z13.000 
G0 X4.396 Z13.000 
G0 X4.396 Z11.000 
G1 X4.396 Y16.750 Z3.000 
G1 X-28.750 Y-16.396 Z3.000 
G0 Z13.000 
G0 X-27.377 Y-16.750 Z13.000 
G0 X-27.377 Y-16.750 Z11.000 
G1 X-27.377 Y-16.750 Z3.000 
G1 X6.123 Y16.750 Z3.000 
G0 Z13.000 
G0 X6.164 Z13.000 
G0 X6.164 Z11.000 
G1 X6.164 Y16.750 Z3.000 
G1 X-27.336 Y-16.750 Z3.000 
G0 Z13.000 
G0 X-25.609 Z13.000 
G0 X-25.609 Z11.000 
G1 X-25.609 Y-16.750 Z3.000 
G1 X7.891 Y16.750 Z3.000 
G0 Z13.000 
G0 X7.931 Z13.000 
G0 X7.931 Z11.000 
G1 X7.931 Y16.750 Z3.000 
G1 X-25.569 Y-16.750 Z3.000 
G0 Z13.000 
G0 X-23.841 Z13.000 
G0 X-23.841 Z11.000 
G1 X-23.841 Y-16.750 Z3.000 
G1 X9.659 Y16.750 Z3.000 
G0 Z13.000 
G0 X9.699 Z13.000 
G0 X9.699 Z11.000 
G1 X9.699 Y16.750 Z3.000 
G1 X-23.801 Y-16.750 Z3.000 
G0 Z13.000 
G0 X-22.074 Z13.000 
G0 X-22.074 Z11.000 
G1 X-22.074 Y-16.750 Z3.000 
G1 X11.426 Y16.750 Z3.000 
G0 Z13.000 
G0 X11.467 Z13.000 
G0 X11.467 Z11.000 
G1 X11.467 Y16.750 Z3.000 
G1 X-22.033 Y-16.750 Z3.000 
G0 Z13.000 
G0 X-20.306 Z13.000 
G0 X-20.306 Z11.000 
G1 X-20.306 Y-16.750 Z3.000 
G1 X13.194 Y16.750 Z3.000 
G0 Z13.000 
G0 X13.235 Z13.000 
G0 X13.235 Z11.000 
G1 X13.235 Y16.750 Z3.000 
G1 X-20.265 Y-16.750 Z3.000 
G0 Z13.000 
G0 X-18.538 Z13.000 
G0 X-18.538 Z11.000 
G1 X-18.538 Y-16.750 Z3.000 
G1 X14.962 Y16.750 Z3.000 
G0 Z13.000 
G0 X15.002 Z13.000 
G0 X15.002 Z11.000 
G1 X15.002 Y16.750 Z3.000 
G1 X-18.498 Y-16.750 Z3.000 
G0 Z13.000 
G0 X-16.770 Z13.000 
G0 X-16.770 Z11.000 
G1 X-16.770 Y-16.750 Z3.000 
G1 X16.730 Y16.750 Z3.000 
G0 Z13.000 
G0 X16.770 Z13.000 
G0 X16.770 Z11.000 
G1 X16.770 Y16.750 Z3.000 
G1 X-16.730 Y-16.750 Z3.000 
G0 Z13.000 
G0 X-15.002 Z13.000 
G0 X-15.002 Z11.000 
G1 X-15.002 Y-16.750 Z3.000 
G1 X18.498 Y16.750 Z3.000 
G0 Z13.000 
G0 X18.538 Z13.000 
G0 X18.538 Z11.000 
G1 X18.538 Y16.750 Z3.000 
G1 X-14.962 Y-16.750 Z3.000 
G0 Z13.000 
G0 X-13.235 Z13.000 
G0 X-13.235 Z11.000 
G1 X-13.235 Y-16.750 Z3.000 
G1 X20.265 Y16.750 Z3.000 
G0 Z13.000 
G0 X20.306 Z13.000 
G0 X20.306 Z11.000 
G1 X20.306 Y16.750 Z3.000 
G1 X-13.194 Y-16.750 Z3.000 
G0 Z13.000 
G0 X-11.467 Z13.000 
G0 X-11.467 Z11.000 
G1 X-11.467 Y-16.750 Z3.000 
G1 X22.033 Y16.750 Z3.000 
G0 Z13.000 
G0 X22.074 Z13.000 
G0 X22.074 Z11.000 
G1 X22.074 Y16.750 Z3.000 
G1 X-11.426 Y-16.750 Z3.000 
G0 Z13.000 
G0 X-9.699 Z13.000 
G0 X-9.699 Z11.000 
G1 X-9.699 Y-16.750 Z3.000 
G1 X23.750 Y16.699 Z3.000 
G0 Z13.000 
G0 Y16.659 Z13.000 
G0 Y16.659 Z11.000 
G1 X23.750 Y16.659 Z3.000 
G1 X-9.659 Y-16.750 Z3.000 
G0 Z13.000 
G0 X-7.931 Z13.000 
G0 X-7.931 Z11.000 
G1 X-7.931 Y-16.750 Z3.000 
G1 X23.750 Y14.931 Z3.000 
G0 Z13.000 
G0 Y14.891 Z13.000 
G0 Y14.891 Z11.000 
G1 X23.750 Y14.891 Z3.000 
G1 X-7.891 Y-16.750 Z3.000 
G0 Z13.000 
G0 X-6.164 Z13.000 
G0 X-6.164 Z11.000 
G1 X-6.164 Y-16.750 Z3.000 
G1 X23.750 Y13.164 Z3.000 
G0 Z13.000 
G0 Y13.123 Z13.000 
G0 Y13.123 Z11.000 
G1 X23.750 Y13.123 Z3.000 
G1 X-6.123 Y-16.750 Z3.000 
G0 Z13.000 
G0 X-4.396 Z13.000 
G0 X-4.396 Z11.000 
G1 X-4.396 Y-16.750 Z3.000 
G1 X23.764 Y11.410 Z3.000 
G0 Z13.000 
G0 X23.770 Y11.375 Z13.000 
G0 X23.770 Y11.375 Z11.000 
G1 X23.770 Y11.375 Z3.000 
G1 X-4.355 Y-16.750 Z3.000 
G0 Z13.000 
G0 X-2.628 Z13.000 
G0 X-2.628 Z11.000 
G1 X-2.628 Y-16.750 Z3.000 
G1 X24.490 Y10.368 Z3.000 
G0 Z13.000 
G0 X24.519 Y10.357 Z13.000 
G0 X24.519 Y10.357 Z11.000 
G1 X24.519 Y10.357 Z3.000 
G1 X-2.588 Y-16.750 Z3.000 
G0 Z13.000 
G0 X-0.860 Z13.000 
G0 X-0.860 Z11.000 
G1 X-0.860 Y-16.750 Z3.000 
G1 X26.140 Y10.250 Z3.000 
G0 Z13.000 
G0 X26.180 Z13.000 
G0 X26.180 Z11.000 
G1 X26.180 Y10.250 Z3.000 
G1 X-0.820 Y-16.750 Z3.000 
G0 Z13.000 
G0 X0.907 Z13.000 
G0 X0.907 Z11.000 
G1 X0.907 Y-16.750 Z3.000 
G1 X27.907 Y10.250 Z3.000 
G0 Z13.000 
G0 X27.948 Z13.000 
G0 X27.948 Z11.000 
G1 X27.948 Y10.250 Z3.000 
G1 X0.948 Y-16.750 Z3.000 
G0 Z13.000 
G0 X2.675 Z13.000 
G0 X2.675 Z11.000 
G1 X2.675 Y-16.750 Z3.000 
G1 X28.750 Y9.325 Z3.000 
G0 Z13.000 
G0 Y9.284 Z13.000 
G0 Y9.284 Z11.000 
G1 X28.750 Y9.284 Z3.000 
G1 X2.716 Y-16.750 Z3.000 
G0 Z13.000 
G0 X4.355 Z13.000 
G0 X4.355 Z11.000 
G1 X4.355 Y-16.750 Z3.000 
G1 X-28.750 Y16.355 Z3.000 
G0 Z13.000 
G0 Y16.396 Z13.000 
G0 Y16.396 Z11.000 
G1 X-28.750 Y16.396 Z3.000 
G1 X4.396 Y-16.750 Z3.000 
G0 Z13.000 
G0 X4.443 Z13.000 
G0 X4.443 Z11.000 
G1 X4.443 Y-16.750 Z3.000 
G1 X28.750 Y7.557 Z3.000 
G0 Z13.000 
G0 Y7.517 Z13.000 
G0 Y7.517 Z11.000 
G1 X28.750 Y7.517 Z3.000 
G1 X4.483 Y-16.750 Z3.000 
G0 Z13.000 
G0 X6.123 Z13.000 
G0 X6.123 Z11.000 
G1 X6.123 Y-16.750 Z3.000 
G1 X-27.377 Y16.750 Z3.000 
G0 Z13.000 
G0 X-27.336 Z13.000 
G0 X-27.336 Z11.000 
G1 X-27.336 Y16.750 Z3.000 
G1 X6.164 Y-16.750 Z3.000 
G0 Z13.000 
G0 X6.211 Z13.000 
G0 X6.211 Z11.000 
G1 X6.211 Y-16.750 Z3.000 
G1 X23.750 Y0.789 Z3.000 
G0 Z13.000 
G0 Y0.749 Z13.000 
G0 Y0.749 Z11.000 
G1 X23.750 Y0.749 Z3.000 
G1 X6.251 Y-16.750 Z3.000 
G0 Z13.000 
G0 X7.891 Z13.000 
G0 X7.891 Z11.000 
G1 X7.891 Y-16.750 Z3.000 
G1 X-25.609 Y16.750 Z3.000 
G0 Z13.000 
G0 X-25.569 Z13.000 
G0 X-25.569 Z11.000 
G1 X-25.569 Y16.750 Z3.000 
G1 X7.931 Y-16.750 Z3.000 
G0 Z13.000 
G0 X7.979 Z13.000 
G0 X7.979 Z11.000 
G1 X7.979 Y-16.750 Z3.000 
G1 X23.750 Y-0.979 Z3.000 
G0 Z13.000 
G0 Y-1.019 Z13.000 
G0 Y-1.019 Z11.000 
G1 X23.750 Y-1.019 Z3.000 
G1 X8.019 Y-16.750 Z3.000 
G0 Z13.000 
G0 X9.659 Z13.000 
G0 X9.659 Z11.000 
G1 X9.659 Y-16.750 Z3.000 
G1 X-23.841 Y16.750 Z3.000 
G0 Z13.000 
G0 X-23.801 Z13.000 
G0 X-23.801 Z11.000 
G1 X-23.801 Y16.750 Z3.000 
G1 X9.699 Y-16.750 Z3.000 
G0 Z13.000 
G0 X9.746 Z13.000 
G0 X9.746 Z11.000 
G1 X9.746 Y-16.750 Z3.000 
G1 X23.750 Y-2.746 Z3.000 
G0 Z13.000 
G0 Y-2.787 Z13.000 
G0 Y-2.787 Z11.000 
G1 X23.750 Y-2.787 Z3.000 
G1 X9.787 Y-16.750 Z3.000 
G0 Z13.000 
G0 X11.426 Z13.000 
G0 X11.426 Z11.000 
G1 X11.426 Y-16.750 Z3.000 
G1 X-22.074 Y16.750 Z3.000 
G0 Z13.000 
G0 X-22.033 Z13.000 
G0 X-22.033 Z11.000 
G1 X-22.033 Y16.750 Z3.000 
G1 X11.467 Y-16.750 Z3.000 
G0 Z13.000 
G0 X11.514 Z13.000 
G0 X11.514 Z11.000 
G1 X11.514 Y-16.750 Z3.000 
G1 X23.750 Y-4.514 Z3.000 
G0 Z13.000 
G0 Y-4.554 Z13.000 
G0 Y-4.554 Z11.000 
G1 X23.750 Y-4.554 Z3.000 
G1 X11.554 Y-16.750 Z3.000 
G0 Z13.000 
G0 X13.194 Z13.000 
G0 X13.194 Z11.000 
G1 X13.194 Y-16.750 Z3.000 
G1 X-20.306 Y16.750 Z3.000 
G0 Z13.000 
G0 X-20.265 Z13.000 
G0 X-20.265 Z11.000 
G1 X-20.265 Y16.750 Z3.000 
G1 X13.235 Y-16.750 Z3.000 
G0 Z13.000 
G0 X13.282 Z13.000 
G0 X13.282 Z11.000 
G1 X13.282 Y-16.750 Z3.000 
G1 X23.750 Y-6.282 Z3.000 
G0 Z13.000 
G0 Y-6.322 Z13.000 
G0 Y-6.322 Z11.000 
G1 X23.750 Y-6.322 Z3.000 
G1 X13.322 Y-16.750 Z3.000 
G0 Z13.000 
G0 X14.962 Z13.000 
G0 X14.962 Z11.000 
G1 X14.962 Y-16.750 Z3.000 
G1 X-18.538 Y16.750 Z3.000 
G0 Z13.000 
G0 X-18.498 Z13.000 
G0 X-18.498 Z11.000 
G1 X-18.498 Y16.750 Z3.000 
G1 X15.002 Y-16.750 Z3.000 
G0 Z13.000 
G0 X15.050 Z13.000 
G0 X15.050 Z11.000 
G1 X15.050 Y-16.750 Z3.000 
G1 X23.750 Y-8.050 Z3.000 
G0 Z13.000 
G0 Y-8.090 Z13.000 
G0 Y-8.090 Z11.000 
G1 X23.750 Y-8.090 Z3.000 
G1 X15.090 Y-16.750 Z3.000 
G0 Z13.000 
G0 X16.730 Z13.000 
G0 X16.730 Z11.000 
G1 X16.730 Y-16.750 Z3.000 
G1 X-16.770 Y16.750 Z3.000 
G0 Z13.000 
G0 X-16.730 Z13.000 
G0 X-16.730 Z11.000 
G1 X-16.730 Y16.750 Z3.000 
G1 X16.770 Y-16.750 Z3.000 
G0 Z13.000 
G0 X16.817 Z13.000 
G0 X16.817 Z11.000 
G1 X16.817 Y-16.750 Z3.000 
G1 X23.750 Y-9.817 Z3.000 
G0 Z13.000 
G0 Y-9.858 Z13.000 
G0 Y-9.858 Z11.000 
G1 X23.750 Y-9.858 Z3.000 
G1 X16.858 Y-16.750 Z3.000 
G0 Z13.000 
G0 X18.498 Z13.000 
G0 X18.498 Z11.000 
G1 X18.498 Y-16.750 Z3.000 
G1 X-15.002 Y16.750 Z3.000 
G0 Z13.000 
G0 X-14.962 Z13.000 
G0 X-14.962 Z11.000 
G1 X-14.962 Y16.750 Z3.000 
G1 X18.538 Y-16.750 Z3.000 
G0 Z13.000 
G0 X18.585 Z13.000 
G0 X18.585 Z11.000 
G1 X18.585 Y-16.750 Z3.000 
G1 X23.750 Y-11.585 Z3.000 
G0 Z13.000 
G0 Y-11.626 Z13.000 
G0 Y-11.626 Z11.000 
G1 X23.750 Y-11.626 Z3.000 
G1 X18.626 Y-16.750 Z3.000 
G0 Z13.000 
G0 X20.265 Z13.000 
G0 X20.265 Z11.000 
G1 X20.265 Y-16.750 Z3.000 
G1 X-13.235 Y16.750 Z3.000 
G0 Z13.000 
G0 X-13.194 Z13.000 
G0 X-13.194 Z11.000 
G1 X-13.194 Y16.750 Z3.000 
G1 X20.306 Y-16.750 Z3.000 
G0 Z13.000 
G0 X20.353 Z13.000 
G0 X20.353 Z11.000 
G1 X20.353 Y-16.750 Z3.000 
G1 X23.750 Y-13.353 Z3.000 
G0 Z13.000 
G0 Y-13.393 Z13.000 
G0 Y-13.393 Z11.000 
G1 X23.750 Y-13.393 Z3.000 
G1 X20.393 Y-16.750 Z3.000 
G0 Z13.000 
G0 X22.033 Z13.000 
G0 X22.033 Z11.000 
G1 X22.033 Y-16.750 Z3.000 
G1 X-11.467 Y16.750 Z3.000 
G0 Z13.000 
G0 X-11.426 Z13.000 
G0 X-11.426 Z11.000 
G1 X-11.426 Y16.750 Z3.000 
G1 X22.074 Y-16.750 Z3.000 
G0 Z13.000 
G0 X22.121 Z13.000 
G0 X22.121 Z11.000 
G1 X22.121 Y-16.750 Z3.000 
G1 X23.750 Y-15.121 Z3.000 
G0 Z13.000 
G0 Y-15.161 Z13.000 
G0 Y-15.161 Z11.000 
G1 X23.750 Y-15.161 Z3.000 
G1 X22.161 Y-16.750 Z3.000 
G0 Z13.000 
G0 X23.750 Y-16.699 Z13.000 
G0 X23.750 Y-16.699 Z11.000 
G1 X23.750 Y-16.699 Z3.000 
G1 X-9.699 Y16.750 Z3.000 
G0 Z13.000 
G0 X-9.659 Z13.000 
G0 X-9.659 Z11.000 
G1 X-9.659 Y16.750 Z3.000 
G1 X23.750 Y-16.659 Z3.000 
G0 Z13.000 
G0 Y-14.931 Z13.000 
G0 Y-14.931 Z11.000 
G1 X23.750 Y-14.931 Z3.000 
G1 X-7.931 Y16.750 Z3.000 
G0 Z13.000 
G0 X-7.891 Z13.000 
G0 X-7.891 Z11.000 
G1 X-7.891 Y16.750 Z3.000 
G1 X23.750 Y-14.891 Z3.000 
G0 Z13.000 
G0 Y-13.164 Z13.000 
G0 Y-13.164 Z11.000 
G1 X23.750 Y-13.164 Z3.000 
G1 X-6.164 Y16.750 Z3.000 
G0 Z13.000 
G0 X-6.123 Z13.000 
G0 X-6.123 Z11.000 
G1 X-6.123 Y16.750 Z3.000 
G1 X23.750 Y-13.123 Z3.000 
G0 Z13.000 
G0 Y-11.396 Z13.000 
G0 Y-11.396 Z11.000 
G1 X23.750 Y-11.396 Z3.000 
G1 X-4.396 Y16.750 Z3.000 
G0 Z13.000 
G0 X-4.355 Z13.000 
G0 X-4.355 Z11.000 
G1 X-4.355 Y16.750 Z3.000 
G1 X23.750 Y-11.355 Z3.000 
G0 Z13.000 
G0 Y-9.628 Z13.000 
G0 Y-9.628 Z11.000 
G1 X23.750 Y-9.628 Z3.000 
G1 X-2.628 Y16.750 Z3.000 
G0 Z13.000 
G0 X-2.588 Z13.000 
G0 X-2.588 Z11.000 
G1 X-2.588 Y16.750 Z3.000 
G1 X23.750 Y-9.588 Z3.000 
G0 Z13.000 
G0 Y-7.860 Z13.000 
G0 Y-7.860 Z11.000 
G1 X23.750 Y-7.860 Z3.000 
G1 X-0.860 Y16.750 Z3.000 
G0 Z13.000 
G0 X-0.820 Z13.000 
G0 X-0.820 Z11.000 
G1 X-0.820 Y16.750 Z3.000 
G1 X23.750 Y-7.820 Z3.000 
G0 Z13.000 
G0 Y-6.093 Z13.000 
G0 Y-6.093 Z11.000 
G1 X23.750 Y-6.093 Z3.000 
G1 X0.907 Y16.750 Z3.000 
G0 Z13.000 
G0 X0.948 Z13.000 
G0 X0.948 Z11.000 
G1 X0.948 Y16.750 Z3.000 
G1 X23.750 Y-6.052 Z3.000 
G0 Z13.000 
G0 Y-4.325 Z13.000 
G0 Y-4.325 Z11.000 
G1 X23.750 Y-4.325 Z3.000 
G1 X2.675 Y16.750 Z3.000 
G0 Z13.000 
G0 X2.716 Z13.000 
G0 X2.716 Z11.000 
G1 X2.716 Y16.750 Z3.000 
G1 X23.750 Y-4.284 Z3.000 
G0 Z13.000 
G0 Y-2.557 Z13.000 
G0 Y-2.557 Z11.000 
G1 X23.750 Y-2.557 Z3.000 
G1 X4.443 Y16.750 Z3.000 
G0 Z13.000 
G0 X4.483 Z13.000 
G0 X4.483 Z11.000 
G1 X4.483 Y16.750 Z3.000 
G1 X23.750 Y-2.517 Z3.000 
G0 Z13.000 
G0 Y-0.789 Z13.000 
G0 Y-0.789 Z11.000 
G1 X23.750 Y-0.789 Z3.000 
G1 X6.211 Y16.750 Z3.000 
G0 Z13.000 
G0 X6.251 Z13.000 
G0 X6.251 Z11.000 
G1 X6.251 Y16.750 Z3.000 
G1 X23.750 Y-0.749 Z3.000 
G0 Z13.000 
G0 Y0.979 Z13.000 
G0 Y0.979 Z11.000 
G1 X23.750 Y0.979 Z3.000 
G1 X7.979 Y16.750 Z3.000 
G0 Z13.000 
G0 X8.019 Z13.000 
G0 X8.019 Z11.000 
G1 X8.019 Y16.750 Z3.000 
G1 X23.750 Y1.019 Z3.000 
G0 Z13.000 
G0 X24.117 Y2.379 Z13.000 
G0 X24.117 Y2.379 Z11.000 
G1 X24.117 Y2.379 Z3.000 
G1 X9.746 Y16.750 Z3.000 
G0 Z13.000 
G0 X9.787 Z13.000 
G0 X9.787 Z11.000 
G1 X9.787 Y16.750 Z3.000 
G1 X24.139 Y2.397 Z3.000 
G0 Z13.000 
G0 X25.514 Y2.750 Z13.000 
G0 X25.514 Y2.750 Z11.000 
G1 X25.514 Y2.750 Z3.000 
G1 X11.514 Y16.750 Z3.000 
G0 Z13.000 
G0 X11.554 Z13.000 
G0 X11.554 Z11.000 
G1 X11.554 Y16.750 Z3.000 
G1 X25.554 Y2.750 Z3.000 
G0 Z13.000 
G0 X25.711 Z13.000 
G0 X25.711 Z11.000 
G1 X25.711 Y2.750 Z3.000 
G1 X28.750 Y5.789 Z3.000 
G0 Z13.000 
G0 Y5.749 Z13.000 
G0 Y5.749 Z11.000 
G1 X28.750 Y5.749 Z3.000 
G1 X25.751 Y2.750 Z3.000 
G0 Z13.000 
G0 X27.282 Z13.000 
G0 X27.282 Z11.000 
G1 X27.282 Y2.750 Z3.000 
G1 X13.282 Y16.750 Z3.000 
G0 Z13.000 
G0 X13.322 Z13.000 
G0 X13.322 Z11.000 
G1 X13.322 Y16.750 Z3.000 
G1 X27.322 Y2.750 Z3.000 
G0 Z13.000 
G0 X27.479 Z13.000 
G0 X27.479 Z11.000 
G1 X27.479 Y2.750 Z3.000 
G1 X28.750 Y4.021 Z3.000 
G0 Z13.000 
G0 Y3.981 Z13.000 
G0 Y3.981 Z11.000 
G1 X28.750 Y3.981 Z3.000 
G1 X27.519 Y2.750 Z3.000 
G0 Z13.000 
G0 X28.750 Y3.050 Z13.000 
G0 X28.750 Y3.050 Z11.000 
G1 X28.750 Y3.050 Z3.000 
G1 X15.050 Y16.750 Z3.000 
G0 Z13.000 
G0 X15.090 Z13.000 
G0 X15.090 Z11.000 
G1 X15.090 Y16.750 Z3.000 
G1 X28.750 Y3.090 Z3.000 
G0 Z13.000 
G0 Y4.817 Z13.000 
G0 Y4.817 Z11.000 
G1 X28.750 Y4.817 Z3.000 
G1 X16.817 Y16.750 Z3.000 
G0 Z13.000 
G0 X16.858 Z13.000 
G0 X16.858 Z11.000 
G1 X16.858 Y16.750 Z3.000 
G1 X28.750 Y4.858 Z3.000 
G0 Z13.000 
G0 Y6.585 Z13.000 
G0 Y6.585 Z11.000 
G1 X28.750 Y6.585 Z3.000 
G1 X25.085 Y10.250 Z3.000 
G0 Z13.000 
G0 X25.126 Z13.000 
G0 X25.126 Z11.000 
G1 X25.126 Y10.250 Z3.000 
G1 X28.750 Y6.626 Z3.000 
G0 Z13.000 
G0 Y8.353 Z13.000 
G0 Y8.353 Z11.000 
G1 X28.750 Y8.353 Z3.000 
G1 X26.853 Y10.250 Z3.000 
G0 Z13.000 
G0 X26.893 Z13.000 
G0 X26.893 Z11.000 
G1 X26.893 Y10.250 Z3.000 
G1 X28.750 Y8.393 Z3.000 
G0 Z13.000 
G0 Y10.121 Z13.000 
G0 Y10.121 Z11.000 
G1 X28.750 Y10.121 Z3.000 
G1 X28.621 Y10.250 Z3.000 
G0 Z13.000 
G0 X28.661 Z13.000 
G0 X28.661 Z11.000 
G1 X28.661 Y10.250 Z3.000 
G1 X28.750 Y10.161 Z3.000 
G0 Z13.000 
G0 X23.750 Y11.585 Z13.000 
G0 X23.750 Y11.585 Z11.000 
G1 X23.750 Y11.585 Z3.000 
G1 X18.585 Y16.750 Z3.000 
G0 Z13.000 
G0 X18.626 Z13.000 
G0 X18.626 Z11.000 
G1 X18.626 Y16.750 Z3.000 
G1 X23.750 Y11.626 Z3.000 
G0 Z13.000 
G0 Y13.353 Z13.000 
G0 Y13.353 Z11.000 
G1 X23.750 Y13.353 Z3.000 
G1 X20.353 Y16.750 Z3.000 
G0 Z13.000 
G0 X20.393 Z13.000 
G0 X20.393 Z11.000 
G1 X20.393 Y16.750 Z3.000 
G1 X23.750 Y13.393 Z3.000 
G0 Z13.000 
G0 Y15.121 Z13.000 
G0 Y15.121 Z11.000 
G1 X23.750 Y15.121 Z3.000 
G1 X22.121 Y16.750 Z3.000 
G0 Z13.000 
G0 X22.161 Z13.000 
G0 X22.161 Z11.000 
G1 X22.161 Y16.750 Z3.000 
G1 X23.750 Y15.161 Z3.000 
G1 X23.750 Y15.161 Z2.000 
G1 X22.161 Y16.750 Z2.000 
G0 Z13.000 
G0 X22.121 Z13.000 
G0 X22.121 Z11.000 
G1 X22.121 Y16.750 Z2.000 
G1 X23.750 Y15.121 Z2.000 
G0 Z13.000 
G0 Y14.931 Z13.000 
G0 Y14.931 Z11.000 
G1 X23.750 Y14.931 Z2.000 
G1 X-7.931 Y-16.750 Z2.000 
G0 Z13.000 
G0 X-7.891 Z13.000 
G0 X-7.891 Z11.000 
G1 X-7.891 Y-16.750 Z2.000 
G1 X23.750 Y14.891 Z2.000 
G0 Z13.000 
G0 Y13.393 Z13.000 
G0 Y13.393 Z11.000 
G1 X23.750 Y13.393 Z2.000 
G1 X20.393 Y16.750 Z2.000 
G0 Z13.000 
G0 X20.353 Z13.000 
G0 X20.353 Z11.000 
G1 X20.353 Y16.750 Z2.000 
G1 X23.750 Y13.353 Z2.000 
G0 Z13.000 
G0 Y13.164 Z13.000 
G0 Y13.164 Z11.000 
G1 X23.750 Y13.164 Z2.000 
G1 X-6.164 Y-16.750 Z2.000 
G0 Z13.000 
G0 X-6.123 Z13.000 
G0 X-6.123 Z11.000 
G1 X-6.123 Y-16.750 Z2.000 
G1 X23.750 Y13.123 Z2.000 
G0 Z13.000 
G0 Y11.626 Z13.000 
G0 Y11.626 Z11.000 
G1 X23.750 Y11.626 Z2.000 
G1 X18.626 Y16.750 Z2.000 
G0 Z13.000 
G0 X18.585 Z13.000 
G0 X18.585 Z11.000 
G1 X18.585 Y16.750 Z2.000 
G1 X23.750 Y11.585 Z2.000 
G0 Z13.000 
G0 X23.764 Y11.410 Z13.000 
G0 X23.764 Y11.410 Z11.000 
G1 X23.764 Y11.410 Z2.000 
G1 X-4.396 Y-16.750 Z2.000 
G0 Z13.000 
G0 X-4.355 Z13.000 
G0 X-4.355 Z11.000 
G1 X-4.355 Y-16.750 Z2.000 
G1 X23.770 Y11.375 Z2.000 
G0 Z13.000 
G0 X24.490 Y10.368 Z13.000 
G0 X24.490 Y10.368 Z11.000 
G1 X24.490 Y10.368 Z2.000 
G1 X-2.628 Y-16.750 Z2.000 
G0 Z13.000 
G0 X-2.588 Z13.000 
G0 X-2.588 Z11.000 
G1 X-2.588 Y-16.750 Z2.000 
G1 X24.519 Y10.357 Z2.000 
G0 Z13.000 
G0 X25.085 Y10.250 Z13.000 
G0 X25.085 Y10.250 Z11.000 
G1 X25.085 Y10.250 Z2.000 
G1 X28.750 Y6.585 Z2.000 
G0 Z13.000 
G0 Y6.626 Z13.000 
G0 Y6.626 Z11.000 
G1 X28.750 Y6.626 Z2.000 
G1 X25.126 Y10.250 Z2.000 
G0 Z13.000 
G0 X26.140 Z13.000 
G0 X26.140 Z11.000 
G1 X26.140 Y10.250 Z2.000 
G1 X-0.860 Y-16.750 Z2.000 
G0 Z13.000 
G0 X-0.820 Z13.000 
G0 X-0.820 Z11.000 
G1 X-0.820 Y-16.750 Z2.000 
G1 X26.180 Y10.250 Z2.000 
G0 Z13.000 
G0 X26.853 Z13.000 
G0 X26.853 Z11.000 
G1 X26.853 Y10.250 Z2.000 
G1 X28.750 Y8.353 Z2.000 
G0 Z13.000 
G0 Y8.393 Z13.000 
G0 Y8.393 Z11.000 
G1 X28.750 Y8.393 Z2.000 
G1 X26.893 Y10.250 Z2.000 
G0 Z13.000 
G0 X27.907 Z13.000 
G0 X27.907 Z11.000 
G1 X27.907 Y10.250 Z2.000 
G1 X0.907 Y-16.750 Z2.000 
G0 Z13.000 
G0 X0.948 Z13.000 
G0 X0.948 Z11.000 
G1 X0.948 Y-16.750 Z2.000 
G1 X27.948 Y10.250 Z2.000 
G0 Z13.000 
G0 X28.621 Z13.000 
G0 X28.621 Z11.000 
G1 X28.621 Y10.250 Z2.000 
G1 X28.750 Y10.121 Z2.000 
G0 Z13.000 
G0 Y10.161 Z13.000 
G0 Y10.161 Z11.000 
G1 X28.750 Y10.161 Z2.000 
G1 X28.661 Y10.250 Z2.000 
G0 Z13.000 
G0 X28.750 Y9.325 Z13.000 
G0 X28.750 Y9.325 Z11.000 
G1 X28.750 Y9.325 Z2.000 
G1 X2.675 Y-16.750 Z2.000 
G0 Z13.000 
G0 X2.716 Z13.000 
G0 X2.716 Z11.000 
G1 X2.716 Y-16.750 Z2.000 
G1 X28.750 Y9.284 Z2.000 
G0 Z13.000 
G0 Y7.557 Z13.000 
G0 Y7.557 Z11.000 
G1 X28.750 Y7.557 Z2.000 
G1 X4.443 Y-16.750 Z2.000 
G0 Z13.000 
G0 X4.483 Z13.000 
G0 X4.483 Z11.000 
G1 X4.483 Y-16.750 Z2.000 
G1 X28.750 Y7.517 Z2.000 
G0 Z13.000 
G0 Y5.789 Z13.000 
G0 Y5.789 Z11.000 
G1 X28.750 Y5.789 Z2.000 
G1 X25.711 Y2.750 Z2.000 
G0 Z13.000 
G0 X25.751 Z13.000 
G0 X25.751 Z11.000 
G1 X25.751 Y2.750 Z2.000 
G1 X28.750 Y5.749 Z2.000 
G0 Z13.000 
G0 Y4.858 Z13.000 
G0 Y4.858 Z11.000 
G1 X28.750 Y4.858 Z2.000 
G1 X16.858 Y16.750 Z2.000 
G0 Z13.000 
G0 X16.817 Z13.000 
G0 X16.817 Z11.000 
G1 X16.817 Y16.750 Z2.000 
G1 X28.750 Y4.817 Z2.000 
G0 Z13.000 
G0 Y4.021 Z13.000 
G0 Y4.021 Z11.000 
G1 X28.750 Y4.021 Z2.000 
G1 X27.479 Y2.750 Z2.000 
G0 Z13.000 
G0 X27.519 Z13.000 
G0 X27.519 Z11.000 
G1 X27.519 Y2.750 Z2.000 
G1 X28.750 Y3.981 Z2.000 
G0 Z13.000 
G0 Y3.090 Z13.000 
G0 Y3.090 Z11.000 
G1 X28.750 Y3.090 Z2.000 
G1 X15.090 Y16.750 Z2.000 
G0 Z13.000 
G0 X15.050 Z13.000 
G0 X15.050 Z11.000 
G1 X15.050 Y16.750 Z2.000 
G1 X28.750 Y3.050 Z2.000 
G0 Z13.000 
G0 X27.322 Y2.750 Z13.000 
G0 X27.322 Y2.750 Z11.000 
G1 X27.322 Y2.750 Z2.000 
G1 X13.322 Y16.750 Z2.000 
G0 Z13.000 
G0 X13.282 Z13.000 
G0 X13.282 Z11.000 
G1 X13.282 Y16.750 Z2.000 
G1 X27.282 Y2.750 Z2.000 
G0 Z13.000 
G0 X25.554 Z13.000 
G0 X25.554 Z11.000 
G1 X25.554 Y2.750 Z2.000 
G1 X11.554 Y16.750 Z2.000 
G0 Z13.000 
G0 X11.514 Z13.000 
G0 X11.514 Z11.000 
G1 X11.514 Y16.750 Z2.000 
G1 X25.514 Y2.750 Z2.000 
G0 Z13.000 
G0 X24.139 Y2.397 Z13.000 
G0 X24.139 Y2.397 Z11.000 
G1 X24.139 Y2.397 Z2.000 
G1 X9.787 Y16.750 Z2.000 
G0 Z13.000 
G0 X9.746 Z13.000 
G0 X9.746 Z11.000 
G1 X9.746 Y16.750 Z2.000 
G1 X24.117 Y2.379 Z2.000 
G0 Z13.000 
G0 X23.750 Y1.019 Z13.000 
G0 X23.750 Y1.019 Z11.000 
G1 X23.750 Y1.019 Z2.000 
G1 X8.019 Y16.750 Z2.000 
G0 Z13.000 
G0 X7.979 Z13.000 
G0 X7.979 Z11.000 
G1 X7.979 Y16.750 Z2.000 
G1 X23.750 Y0.979 Z2.000 
G0 Z13.000 
G0 Y0.789 Z13.000 
G0 Y0.789 Z11.000 
G1 X23.750 Y0.789 Z2.000 
G1 X6.211 Y-16.750 Z2.000 
G0 Z13.000 
G0 X6.251 Z13.000 
G0 X6.251 Z11.000 
G1 X6.251 Y-16.750 Z2.000 
G1 X23.750 Y0.749 Z2.000 
G0 Z13.000 
G0 Y-0.749 Z13.000 
G0 Y-0.749 Z11.000 
G1 X23.750 Y-0.749 Z2.000 
G1 X6.251 Y16.750 Z2.000 
G0 Z13.000 
G0 X6.211 Z13.000 
G0 X6.211 Z11.000 
G1 X6.211 Y16.750 Z2.000 
G1 X23.750 Y-0.789 Z2.000 
G0 Z13.000 
G0 Y-0.979 Z13.000 
G0 Y-0.979 Z11.000 
G1 X23.750 Y-0.979 Z2.000 
G1 X7.979 Y-16.750 Z2.000 
G0 Z13.000 
G0 X8.019 Z13.000 
G0 X8.019 Z11.000 
G1 X8.019 Y-16.750 Z2.000 
G1 X23.750 Y-1.019 Z2.000 
G0 Z13.000 
G0 Y-2.517 Z13.000 
G0 Y-2.517 Z11.000 
G1 X23.750 Y-2.517 Z2.000 
G1 X4.483 Y16.750 Z2.000 
G0 Z13.000 
G0 X4.443 Z13.000 
G0 X4.443 Z11.000 
G1 X4.443 Y16.750 Z2.000 
G1 X23.750 Y-2.557 Z2.000 
G0 Z13.000 
G0 Y-2.746 Z13.000 
G0 Y-2.746 Z11.000 
G1 X23.750 Y-2.746 Z2.000 
G1 X9.746 Y-16.750 Z2.000 
G0 Z13.000 
G0 X9.787 Z13.000 
G0 X9.787 Z11.000 
G1 X9.787 Y-16.750 Z2.000 
G1 X23.750 Y-2.787 Z2.000 
G0 Z13.000 
G0 Y-4.284 Z13.000 
G0 Y-4.284 Z11.000 
G1 X23.750 Y-4.284 Z2.000 
G1 X2.716 Y16.750 Z2.000 
G0 Z13.000 
G0 X2.675 Z13.000 
G0 X2.675 Z11.000 
G1 X2.675 Y16.750 Z2.000 
G1 X23.750 Y-4.325 Z2.000 
G0 Z13.000 
G0 Y-4.514 Z13.000 
G0 Y-4.514 Z11.000 
G1 X23.750 Y-4.514 Z2.000 
G1 X11.514 Y-16.750 Z2.000 
G0 Z13.000 
G0 X11.554 Z13.000 
G0 X11.554 Z11.000 
G1 X11.554 Y-16.750 Z2.000 
G1 X23.750 Y-4.554 Z2.000 
G0 Z13.000 
G0 Y-6.052 Z13.000 
G0 Y-6.052 Z11.000 
G1 X23.750 Y-6.052 Z2.000 
G1 X0.948 Y16.750 Z2.000 
G0 Z13.000 
G0 X0.907 Z13.000 
G0 X0.907 Z11.000 
G1 X0.907 Y16.750 Z2.000 
G1 X23.750 Y-6.093 Z2.000 
G0 Z13.000 
G0 Y-6.282 Z13.000 
G0 Y-6.282 Z11.000 
G1 X23.750 Y-6.282 Z2.000 
G1 X13.282 Y-16.750 Z2.000 
G0 Z13.000 
G0 X13.322 Z13.000 
G0 X13.322 Z11.000 
G1 X13.322 Y-16.750 Z2.000 
G1 X23.750 Y-6.322 Z2.000 
G0 Z13.000 
G0 Y-7.820 Z13.000 
G0 Y-7.820 Z11.000 
G1 X23.750 Y-7.820 Z2.000 
G1 X-0.820 Y16.750 Z2.000 
G0 Z13.000 
G0 X-0.860 Z13.000 
G0 X-0.860 Z11.000 
G1 X-0.860 Y16.750 Z2.000 
G1 X23.750 Y-7.860 Z2.000 
G0 Z13.000 
G0 Y-8.050 Z13.000 
G0 Y-8.050 Z11.000 
G1 X23.750 Y-8.050 Z2.000 
G1 X15.050 Y-16.750 Z2.000 
G0 Z13.000 
G0 X15.090 Z13.000 
G0 X15.090 Z11.000 
G1 X15.090 Y-16.750 Z2.000 
G1 X23.750 Y-8.090 Z2.000 
G0 Z13.000 
G0 Y-9.588 Z13.000 
G0 Y-9.588 Z11.000 
G1 X23.750 Y-9.588 Z2.000 
G1 X-2.588 Y16.750 Z2.000 
G0 Z13.000 
G0 X-2.628 Z13.000 
G0 X-2.628 Z11.000 
G1 X-2.628 Y16.750 Z2.000 
G1 X23.750 Y-9.628 Z2.000 
G0 Z13.000 
G0 Y-9.817 Z13.000 
G0 Y-9.817 Z11.000 
G1 X23.750 Y-9.817 Z2.000 
G1 X16.817 Y-16.750 Z2.000 
G0 Z13.000 
G0 X16.858 Z13.000 
G0 X16.858 Z11.000 
G1 X16.858 Y-16.750 Z2.000 
G1 X23.750 Y-9.858 Z2.000 
G0 Z13.000 
G0 Y-11.355 Z13.000 
G0 Y-11.355 Z11.000 
G1 X23.750 Y-11.355 Z2.000 
G1 X-4.355 Y16.750 Z2.000 
G0 Z13.000 
G0 X-4.396 Z13.000 
G0 X-4.396 Z11.000 
G1 X-4.396 Y16.750 Z2.000 
G1 X23.750 Y-11.396 Z2.000 
G0 Z13.000 
G0 Y-11.585 Z13.000 
G0 Y-11.585 Z11.000 
G1 X23.750 Y-11.585 Z2.000 
G1 X18.585 Y-16.750 Z2.000 
G0 Z13.000 
G0 X18.626 Z13.000 
G0 X18.626 Z11.000 
G1 X18.626 Y-16.750 Z2.000 
G1 X23.750 Y-11.626 Z2.000 
G0 Z13.000 
G0 Y-13.123 Z13.000 
G0 Y-13.123 Z11.000 
G1 X23.750 Y-13.123 Z2.000 
G1 X-6.123 Y16.750 Z2.000 
G0 Z13.000 
G0 X-6.164 Z13.000 
G0 X-6.164 Z11.000 
G1 X-6.164 Y16.750 Z2.000 
G1 X23.750 Y-13.164 Z2.000 
G0 Z13.000 
G0 Y-13.353 Z13.000 
G0 Y-13.353 Z11.000 
G1 X23.750 Y-13.353 Z2.000 
G1 X20.353 Y-16.750 Z2.000 
G0 Z13.000 
G0 X20.393 Z13.000 
G0 X20.393 Z11.000 
G1 X20.393 Y-16.750 Z2.000 
G1 X23.750 Y-13.393 Z2.000 
G0 Z13.000 
G0 Y-14.891 Z13.000 
G0 Y-14.891 Z11.000 
G1 X23.750 Y-14.891 Z2.000 
G1 X-7.891 Y16.750 Z2.000 
G0 Z13.000 
G0 X-7.931 Z13.000 
G0 X-7.931 Z11.000 
G1 X-7.931 Y16.750 Z2.000 
G1 X23.750 Y-14.931 Z2.000 
G0 Z13.000 
G0 Y-15.121 Z13.000 
G0 Y-15.121 Z11.000 
G1 X23.750 Y-15.121 Z2.000 
G1 X22.121 Y-16.750 Z2.000 
G0 Z13.000 
G0 X22.161 Z13.000 
G0 X22.161 Z11.000 
G1 X22.161 Y-16.750 Z2.000 
G1 X23.750 Y-15.161 Z2.000 
G0 Z13.000 
G0 Y-16.659 Z13.000 
G0 Y-16.659 Z11.000 
G1 X23.750 Y-16.659 Z2.000 
G1 X-9.659 Y16.750 Z2.000 
G0 Z13.000 
G0 X-9.699 Z13.000 
G0 X-9.699 Z11.000 
G1 X-9.699 Y16.750 Z2.000 
G1 X23.750 Y-16.699 Z2.000 
G0 Z13.000 
G0 X22.074 Y-16.750 Z13.000 
G0 X22.074 Y-16.750 Z11.000 
G1 X22.074 Y-16.750 Z2.000 
G1 X-11.426 Y16.750 Z2.000 
G0 Z13.000 
G0 X-11.467 Z13.000 
G0 X-11.467 Z11.000 
G1 X-11.467 Y16.750 Z2.000 
G1 X22.033 Y-16.750 Z2.000 
G0 Z13.000 
G0 X20.306 Z13.000 
G0 X20.306 Z11.000 
G1 X20.306 Y-16.750 Z2.000 
G1 X-13.194 Y16.750 Z2.000 
G0 Z13.000 
G0 X-13.235 Z13.000 
G0 X-13.235 Z11.000 
G1 X-13.235 Y16.750 Z2.000 
G1 X20.265 Y-16.750 Z2.000 
G0 Z13.000 
G0 X18.538 Z13.000 
G0 X18.538 Z11.000 
G1 X18.538 Y-16.750 Z2.000 
G1 X-14.962 Y16.750 Z2.000 
G0 Z13.000 
G0 X-15.002 Z13.000 
G0 X-15.002 Z11.000 
G1 X-15.002 Y16.750 Z2.000 
G1 X18.498 Y-16.750 Z2.000 
G0 Z13.000 
G0 X16.770 Z13.000 
G0 X16.770 Z11.000 
G1 X16.770 Y-16.750 Z2.000 
G1 X-16.730 Y16.750 Z2.000 
G0 Z13.000 
G0 X-16.770 Z13.000 
G0 X-16.770 Z11.000 
G1 X-16.770 Y16.750 Z2.000 
G1 X16.730 Y-16.750 Z2.000 
G0 Z13.000 
G0 X15.002 Z13.000 
G0 X15.002 Z11.000 
G1 X15.002 Y-16.750 Z2.000 
G1 X-18.498 Y16.750 Z2.000 
G0 Z13.000 
G0 X-18.538 Z13.000 
G0 X-18.538 Z11.000 
G1 X-18.538 Y16.750 Z2.000 
G1 X14.962 Y-16.750 Z2.000 
G0 Z13.000 
G0 X13.235 Z13.000 
G0 X13.235 Z11.000 
G1 X13.235 Y-16.750 Z2.000 
G1 X-20.265 Y16.750 Z2.000 
G0 Z13.000 
G0 X-20.306 Z13.000 
G0 X-20.306 Z11.000 
G1 X-20.306 Y16.750 Z2.000 
G1 X13.194 Y-16.750 Z2.000 
G0 Z13.000 
G0 X11.467 Z13.000 
G0 X11.467 Z11.000 
G1 X11.467 Y-16.750 Z2.000 
G1 X-22.033 Y16.750 Z2.000 
G0 Z13.000 
G0 X-22.074 Z13.000 
G0 X-22.074 Z11.000 
G1 X-22.074 Y16.750 Z2.000 
G1 X11.426 Y-16.750 Z2.000 
G0 Z13.000 
G0 X9.699 Z13.000 
G0 X9.699 Z11.000 
G1 X9.699 Y-16.750 Z2.000 
G1 X-23.801 Y16.750 Z2.000 
G0 Z13.000 
G0 X-23.841 Z13.000 
G0 X-23.841 Z11.000 
G1 X-23.841 Y16.750 Z2.000 
G1 X9.659 Y-16.750 Z2.000 
G0 Z13.000 
G0 X7.931 Z13.000 
G0 X7.931 Z11.000 
G1 X7.931 Y-16.750 Z2.000 
G1 X-25.569 Y16.750 Z2.000 
G0 Z13.000 
G0 X-25.609 Z13.000 
G0 X-25.609 Z11.000 
G1 X-25.609 Y16.750 Z2.000 
G1 X7.891 Y-16.750 Z2.000 
G0 Z13.000 
G0 X6.164 Z13.000 
G0 X6.164 Z11.000 
G1 X6.164 Y-16.750 Z2.000 
G1 X-27.336 Y16.750 Z2.000 
G0 Z13.000 
G0 X-27.377 Z13.000 
G0 X-27.377 Z11.000 
G1 X-27.377 Y16.750 Z2.000 
G1 X6.123 Y-16.750 Z2.000 
G0 Z13.000 
G0 X4.396 Z13.000 
G0 X4.396 Z11.000 
G1 X4.396 Y-16.750 Z2.000 
G1 X-28.750 Y16.396 Z2.000 
G0 Z13.000 
G0 Y16.355 Z13.000 
G0 Y16.355 Z11.000 
G1 X-28.750 Y16.355 Z2.000 
G1 X4.355 Y-16.750 Z2.000 
G0 Z13.000 
G0 X2.628 Z13.000 
G0 X2.628 Z11.000 
G1 X2.628 Y-16.750 Z2.000 
G1 X-28.750 Y14.628 Z2.000 
G0 Z13.000 
G0 Y14.588 Z13.000 
G0 Y14.588 Z11.000 
G1 X-28.750 Y14.588 Z2.000 
G1 X2.588 Y-16.750 Z2.000 
G0 Z13.000 
G0 X0.860 Z13.000 
G0 X0.860 Z11.000 
G1 X0.860 Y-16.750 Z2.000 
G1 X-28.750 Y12.860 Z2.000 
G0 Z13.000 
G0 Y12.820 Z13.000 
G0 Y12.820 Z11.000 
G1 X-28.750 Y12.820 Z2.000 
G1 X0.820 Y-16.750 Z2.000 
G0 Z13.000 
G0 X-0.907 Z13.000 
G0 X-0.907 Z11.000 
G1 X-0.907 Y-16.750 Z2.000 
G1 X-28.750 Y11.093 Z2.000 
G0 Z13.000 
G0 Y11.052 Z13.000 
G0 Y11.052 Z11.000 
G1 X-28.750 Y11.052 Z2.000 
G1 X-0.948 Y-16.750 Z2.000 
G0 Z13.000 
G0 X-2.675 Z13.000 
G0 X-2.675 Z11.000 
G1 X-2.675 Y-16.750 Z2.000 
G1 X-28.750 Y9.325 Z2.000 
G0 Z13.000 
G0 Y9.284 Z13.000 
G0 Y9.284 Z11.000 
G1 X-28.750 Y9.284 Z2.000 
G1 X-2.716 Y-16.750 Z2.000 
G0 Z13.000 
G0 X-4.443 Z13.000 
G0 X-4.443 Z11.000 
G1 X-4.443 Y-16.750 Z2.000 
G1 X-28.750 Y7.557 Z2.000 
G0 Z13.000 
G0 Y7.517 Z13.000 
G0 Y7.517 Z11.000 
G1 X-28.750 Y7.517 Z2.000 
G1 X-4.483 Y-16.750 Z2.000 
G0 Z13.000 
G0 X-6.211 Z13.000 
G0 X-6.211 Z11.000 
G1 X-6.211 Y-16.750 Z2.000 
G1 X-28.750 Y5.789 Z2.000 
G0 Z13.000 
G0 Y5.749 Z13.000 
G0 Y5.749 Z11.000 
G1 X-28.750 Y5.749 Z2.000 
G1 X-6.251 Y-16.750 Z2.000 
G0 Z13.000 
G0 X-7.979 Z13.000 
G0 X-7.979 Z11.000 
G1 X-7.979 Y-16.750 Z2.000 
G1 X-28.750 Y4.021 Z2.000 
G0 Z13.000 
G0 Y3.981 Z13.000 
G0 Y3.981 Z11.000 
G1 X-28.750 Y3.981 Z2.000 
G1 X-8.019 Y-16.750 Z2.000 
G0 Z13.000 
G0 X-9.659 Z13.000 
G0 X-9.659 Z11.000 
G1 X-9.659 Y-16.750 Z2.000 
G1 X23.750 Y16.659 Z2.000 
G0 Z13.000 
G0 Y16.699 Z13.000 
G0 Y16.699 Z11.000 
G1 X23.750 Y16.699 Z2.000 
G1 X-9.699 Y-16.750 Z2.000 
G0 Z13.000 
G0 X-9.746 Z13.000 
G0 X-9.746 Z11.000 
G1 X-9.746 Y-16.750 Z2.000 
G1 X-28.750 Y2.254 Z2.000 
G0 Z13.000 
G0 Y2.213 Z13.000 
G0 Y2.213 Z11.000 
G1 X-28.750 Y2.213 Z2.000 
G1 X-9.787 Y-16.750 Z2.000 
G0 Z13.000 
G0 X-11.426 Z13.000 
G0 X-11.426 Z11.000 
G1 X-11.426 Y-16.750 Z2.000 
G1 X22.074 Y16.750 Z2.000 
G0 Z13.000 
G0 X22.033 Z13.000 
G0 X22.033 Z11.000 
G1 X22.033 Y16.750 Z2.000 
G1 X-11.467 Y-16.750 Z2.000 
G0 Z13.000 
G0 X-11.514 Z13.000 
G0 X-11.514 Z11.000 
G1 X-11.514 Y-16.750 Z2.000 
G1 X-28.750 Y0.486 Z2.000 
G0 Z13.000 
G0 Y0.446 Z13.000 
G0 Y0.446 Z11.000 
G1 X-28.750 Y0.446 Z2.000 
G1 X-11.554 Y-16.750 Z2.000 
G0 Z13.000 
G0 X-13.194 Z13.000 
G0 X-13.194 Z11.000 
G1 X-13.194 Y-16.750 Z2.000 
G1 X20.306 Y16.750 Z2.000 
G0 Z13.000 
G0 X20.265 Z13.000 
G0 X20.265 Z11.000 
G1 X20.265 Y16.750 Z2.000 
G1 X-13.235 Y-16.750 Z2.000 
G0 Z13.000 
G0 X-13.282 Z13.000 
G0 X-13.282 Z11.000 
G1 X-13.282 Y-16.750 Z2.000 
G1 X-28.750 Y-1.282 Z2.000 
G0 Z13.000 
G0 Y-1.322 Z13.000 
G0 Y-1.322 Z11.000 
G1 X-28.750 Y-1.322 Z2.000 
G1 X-13.322 Y-16.750 Z2.000 
G0 Z13.000 
G0 X-14.962 Z13.000 
G0 X-14.962 Z11.000 
G1 X-14.962 Y-16.750 Z2.000 
G1 X18.538 Y16.750 Z2.000 
G0 Z13.000 
G0 X18.498 Z13.000 
G0 X18.498 Z11.000 
G1 X18.498 Y16.750 Z2.000 
G1 X-15.002 Y-16.750 Z2.000 
G0 Z13.000 
G0 X-15.050 Z13.000 
G0 X-15.050 Z11.000 
G1 X-15.050 Y-16.750 Z2.000 
G1 X-28.750 Y-3.050 Z2.000 
G0 Z13.000 
G0 Y-3.090 Z13.000 
G0 Y-3.090 Z11.000 
G1 X-28.750 Y-3.090 Z2.000 
G1 X-15.090 Y-16.750 Z2.000 
G0 Z13.000 
G0 X-16.730 Z13.000 
G0 X-16.730 Z11.000 
G1 X-16.730 Y-16.750 Z2.000 
G1 X16.770 Y16.750 Z2.000 
G0 Z13.000 
G0 X16.730 Z13.000 
G0 X16.730 Z11.000 
G1 X16.730 Y16.750 Z2.000 
G1 X-16.770 Y-16.750 Z2.000 
G0 Z13.000 
G0 X-16.817 Z13.000 
G0 X-16.817 Z11.000 
G1 X-16.817 Y-16.750 Z2.000 
G1 X-28.750 Y-4.817 Z2.000 
G0 Z13.000 
G0 Y-4.858 Z13.000 
G0 Y-4.858 Z11.000 
G1 X-28.750 Y-4.858 Z2.000 
G1 X-16.858 Y-16.750 Z2.000 
G0 Z13.000 
G0 X-18.498 Z13.000 
G0 X-18.498 Z11.000 
G1 X-18.498 Y-16.750 Z2.000 
G1 X15.002 Y16.750 Z2.000 
G0 Z13.000 
G0 X14.962 Z13.000 
G0 X14.962 Z11.000 
G1 X14.962 Y16.750 Z2.000 
G1 X-18.538 Y-16.750 Z2.000 
G0 Z13.000 
G0 X-18.585 Z13.000 
G0 X-18.585 Z11.000 
G1 X-18.585 Y-16.750 Z2.000 
G1 X-28.750 Y-6.585 Z2.000 
G0 Z13.000 
G0 Y-6.626 Z13.000 
G0 Y-6.626 Z11.000 
G1 X-28.750 Y-6.626 Z2.000 
G1 X-18.626 Y-16.750 Z2.000 
G0 Z13.000 
G0 X-20.265 Z13.000 
G0 X-20.265 Z11.000 
G1 X-20.265 Y-16.750 Z2.000 
G1 X13.235 Y16.750 Z2.000 
G0 Z13.000 
G0 X13.194 Z13.000 
G0 X13.194 Z11.000 
G1 X13.194 Y16.750 Z2.000 
G1 X-20.306 Y-16.750 Z2.000 
G0 Z13.000 
G0 X-20.353 Z13.000 
G0 X-20.353 Z11.000 
G1 X-20.353 Y-16.750 Z2.000 
G1 X-28.750 Y-8.353 Z2.000 
G0 Z13.000 
G0 Y-8.393 Z13.000 
G0 Y-8.393 Z11.000 
G1 X-28.750 Y-8.393 Z2.000 
G1 X-20.393 Y-16.750 Z2.000 
G0 Z13.000 
G0 X-22.033 Z13.000 
G0 X-22.033 Z11.000 
G1 X-22.033 Y-16.750 Z2.000 
G1 X11.467 Y16.750 Z2.000 
G0 Z13.000 
G0 X11.426 Z13.000 
G0 X11.426 Z11.000 
G1 X11.426 Y16.750 Z2.000 
G1 X-22.074 Y-16.750 Z2.000 
G0 Z13.000 
G0 X-22.121 Z13.000 
G0 X-22.121 Z11.000 
G1 X-22.121 Y-16.750 Z2.000 
G1 X-28.750 Y-10.121 Z2.000 
G0 Z13.000 
G0 Y-10.161 Z13.000 
G0 Y-10.161 Z11.000 
G1 X-28.750 Y-10.161 Z2.000 
G1 X-22.161 Y-16.750 Z2.000 
G0 Z13.000 
G0 X-23.801 Z13.000 
G0 X-23.801 Z11.000 
G1 X-23.801 Y-16.750 Z2.000 
G1 X9.699 Y16.750 Z2.000 
G0 Z13.000 
G0 X9.659 Z13.000 
G0 X9.659 Z11.000 
G1 X9.659 Y16.750 Z2.000 
G1 X-23.841 Y-16.750 Z2.000 
G0 Z13.000 
G0 X-23.888 Z13.000 
G0 X-23.888 Z11.000 
G1 X-23.888 Y-16.750 Z2.000 
G1 X-28.750 Y-11.888 Z2.000 
G0 Z13.000 
G0 Y-11.929 Z13.000 
G0 Y-11.929 Z11.000 
G1 X-28.750 Y-11.929 Z2.000 
G1 X-23.929 Y-16.750 Z2.000 
G0 Z13.000 
G0 X-25.569 Z13.000 
G0 X-25.569 Z11.000 
G1 X-25.569 Y-16.750 Z2.000 
G1 X7.931 Y16.750 Z2.000 
G0 Z13.000 
G0 X7.891 Z13.000 
G0 X7.891 Z11.000 
G1 X7.891 Y16.750 Z2.000 
G1 X-25.609 Y-16.750 Z2.000 
G0 Z13.000 
G0 X-25.656 Z13.000 
G0 X-25.656 Z11.000 
G1 X-25.656 Y-16.750 Z2.000 
G1 X-28.750 Y-13.656 Z2.000 
G0 Z13.000 
G0 Y-13.697 Z13.000 
G0 Y-13.697 Z11.000 
G1 X-28.750 Y-13.697 Z2.000 
G1 X-25.697 Y-16.750 Z2.000 
G0 Z13.000 
G0 X-27.336 Z13.000 
G0 X-27.336 Z11.000 
G1 X-27.336 Y-16.750 Z2.000 
G1 X6.164 Y16.750 Z2.000 
G0 Z13.000 
G0 X6.123 Z13.000 
G0 X6.123 Z11.000 
G1 X6.123 Y16.750 Z2.000 
G1 X-27.377 Y-16.750 Z2.000 
G0 Z13.000 
G0 X-27.424 Z13.000 
G0 X-27.424 Z11.000 
G1 X-27.424 Y-16.750 Z2.000 
G1 X-28.750 Y-15.424 Z2.000 
G0 Z13.000 
G0 Y-15.464 Z13.000 
G0 Y-15.464 Z11.000 
G1 X-28.750 Y-15.464 Z2.000 
G1 X-27.464 Y-16.750 Z2.000 
G0 Z13.000 
G0 X-28.750 Y-16.396 Z13.000 
G0 X-28.750 Y-16.396 Z11.000 
G1 X-28.750 Y-16.396 Z2.000 
G1 X4.396 Y16.750 Z2.000 
G0 Z13.000 
G0 X4.355 Z13.000 
G0 X4.355 Z11.000 
G1 X4.355 Y16.750 Z2.000 
G1 X-28.750 Y-16.355 Z2.000 
G0 Z13.000 
G0 Y-14.628 Z13.000 
G0 Y-14.628 Z11.000 
G1 X-28.750 Y-14.628 Z2.000 
G1 X2.628 Y16.750 Z2.000 
G0 Z13.000 
G0 X2.588 Z13.000 
G0 X2.588 Z11.000 
G1 X2.588 Y16.750 Z2.000 
G1 X-28.750 Y-14.588 Z2.000 
G0 Z13.000 
G0 Y-12.860 Z13.000 
G0 Y-12.860 Z11.000 
G1 X-28.750 Y-12.860 Z2.000 
G1 X0.860 Y16.750 Z2.000 
G0 Z13.000 
G0 X0.820 Z13.000 
G0 X0.820 Z11.000 
G1 X0.820 Y16.750 Z2.000 
G1 X-28.750 Y-12.820 Z2.000 
G0 Z13.000 
G0 Y-11.093 Z13.000 
G0 Y-11.093 Z11.000 
G1 X-28.750 Y-11.093 Z2.000 
G1 X-0.907 Y16.750 Z2.000 
G0 Z13.000 
G0 X-0.948 Z13.000 
G0 X-0.948 Z11.000 
G1 X-0.948 Y16.750 Z2.000 
G1 X-28.750 Y-11.052 Z2.000 
G0 Z13.000 
G0 Y-9.325 Z13.000 
G0 Y-9.325 Z11.000 
G1 X-28.750 Y-9.325 Z2.000 
G1 X-2.675 Y16.750 Z2.000 
G0 Z13.000 
G0 X-2.716 Z13.000 
G0 X-2.716 Z11.000 
G1 X-2.716 Y16.750 Z2.000 
G1 X-28.750 Y-9.284 Z2.000 
G0 Z13.000 
G0 Y-7.557 Z13.000 
G0 Y-7.557 Z11.000 
G1 X-28.750 Y-7.557 Z2.000 
G1 X-4.443 Y16.750 Z2.000 
G0 Z13.000 
G0 X-4.483 Z13.000 
G0 X-4.483 Z11.000 
G1 X-4.483 Y16.750 Z2.000 
G1 X-28.750 Y-7.517 Z2.000 
G0 Z13.000 
G0 Y-5.789 Z13.000 
G0 Y-5.789 Z11.000 
G1 X-28.750 Y-5.789 Z2.000 
G1 X-6.211 Y16.750 Z2.000 
G0 Z13.000 
G0 X-6.251 Z13.000 
G0 X-6.251 Z11.000 
G1 X-6.251 Y16.750 Z2.000 
G1 X-28.750 Y-5.749 Z2.000 
G0 Z13.000 
G0 Y-4.021 Z13.000 
G0 Y-4.021 Z11.000 
G1 X-28.750 Y-4.021 Z2.000 
G1 X-7.979 Y16.750 Z2.000 
G0 Z13.000 
G0 X-8.019 Z13.000 
G0 X-8.019 Z11.000 
G1 X-8.019 Y16.750 Z2.000 
G1 X-28.750 Y-3.981 Z2.000 
G0 Z13.000 
G0 Y-2.254 Z13.000 
G0 Y-2.254 Z11.000 
G1 X-28.750 Y-2.254 Z2.000 
G1 X-9.746 Y16.750 Z2.000 
G0 Z13.000 
G0 X-9.787 Z13.000 
G0 X-9.787 Z11.000 
G1 X-9.787 Y16.750 Z2.000 
G1 X-28.750 Y-2.213 Z2.000 
G0 Z13.000 
G0 Y-0.486 Z13.000 
G0 Y-0.486 Z11.000 
G1 X-28.750 Y-0.486 Z2.000 
G1 X-11.514 Y16.750 Z2.000 
G0 Z13.000 
G0 X-11.554 Z13.000 
G0 X-11.554 Z11.000 
G1 X-11.554 Y16.750 Z2.000 
G1 X-28.750 Y-0.446 Z2.000 
G0 Z13.000 
G0 Y1.282 Z13.000 
G0 Y1.282 Z11.000 
G1 X-28.750 Y1.282 Z2.000 
G1 X-13.282 Y16.750 Z2.000 
G0 Z13.000 
G0 X-13.322 Z13.000 
G0 X-13.322 Z11.000 
G1 X-13.322 Y16.750 Z2.000 
G1 X-28.750 Y1.322 Z2.000 
G0 Z13.000 
G0 Y3.050 Z13.000 
G0 Y3.050 Z11.000 
G1 X-28.750 Y3.050 Z2.000 
G1 X-15.050 Y16.750 Z2.000 
G0 Z13.000 
G0 X-15.090 Z13.000 
G0 X-15.090 Z11.000 
G1 X-15.090 Y16.750 Z2.000 
G1 X-28.750 Y3.090 Z2.000 
G0 Z13.000 
G0 Y4.817 Z13.000 
G0 Y4.817 Z11.000 
G1 X-28.750 Y4.817 Z2.000 
G1 X-16.817 Y16.750 Z2.000 
G0 Z13.000 
G0 X-16.858 Z13.000 
G0 X-16.858 Z11.000 
G1 X-16.858 Y16.750 Z2.000 
G1 X-28.750 Y4.858 Z2.000 
G0 Z13.000 
G0 Y6.585 Z13.000 
G0 Y6.585 Z11.000 
G1 X-28.750 Y6.585 Z2.000 
G1 X-18.585 Y16.750 Z2.000 
G0 Z13.000 
G0 X-18.626 Z13.000 
G0 X-18.626 Z11.000 
G1 X-18.626 Y16.750 Z2.000 
G1 X-28.750 Y6.626 Z2.000 
G0 Z13.000 
G0 Y8.353 Z13.000 
G0 Y8.353 Z11.000 
G1 X-28.750 Y8.353 Z2.000 
G1 X-20.353 Y16.750 Z2.000 
G0 Z13.000 
G0 X-20.393 Z13.000 
G0 X-20.393 Z11.000 
G1 X-20.393 Y16.750 Z2.000 
G1 X-28.750 Y8.393 Z2.000 
G0 Z13.000 
G0 Y10.121 Z13.000 
G0 Y10.121 Z11.000 
G1 X-28.750 Y10.121 Z2.000 
G1 X-22.121 Y16.750 Z2.000 
G0 Z13.000 
G0 X-22.161 Z13.000 
G0 X-22.161 Z11.000 
G1 X-22.161 Y16.750 Z2.000 
G1 X-28.750 Y10.161 Z2.000 
G0 Z13.000 
G0 Y11.888 Z13.000 
G0 Y11.888 Z11.000 
G1 X-28.750 Y11.888 Z2.000 
G1 X-23.888 Y16.750 Z2.000 
G0 Z13.000 
G0 X-23.929 Z13.000 
G0 X-23.929 Z11.000 
G1 X-23.929 Y16.750 Z2.000 
G1 X-28.750 Y11.929 Z2.000 
G0 Z13.000 
G0 Y13.656 Z13.000 
G0 Y13.656 Z11.000 
G1 X-28.750 Y13.656 Z2.000 
G1 X-25.656 Y16.750 Z2.000 
G0 Z13.000 
G0 X-25.697 Z13.000 
G0 X-25.697 Z11.000 
G1 X-25.697 Y16.750 Z2.000 
G1 X-28.750 Y13.697 Z2.000 
G0 Z13.000 
G0 Y15.424 Z13.000 
G0 Y15.424 Z11.000 
G1 X-28.750 Y15.424 Z2.000 
G1 X-27.424 Y16.750 Z2.000 
G0 Z13.000 
G0 X-27.464 Z13.000 
G0 X-27.464 Z11.000 
G1 X-27.464 Y16.750 Z2.000 
G1 X-28.750 Y15.464 Z2.000 
G0 Z13.000 
G0 Z13.000 
(finish operation: Pocket_Shape001)
(begin operation: Profile)
(machine units: mm/min)
(Profile) 
(Compensated Tool Path. Diameter: 2.5) 
G0 Z13.000 
G0 X31.884 Y20.884 
G0 Z11.000 
G1 X31.884 Y20.884 Z5.500 
G2 X32.250 Y20.000 Z5.500 I-0.884 J-0.884 
G1 X32.250 Y-20.000 Z5.500 
G2 X31.000 Y-21.250 Z5.500 I-1.250 J-0.000 
G1 X-31.000 Y-21.250 Z5.500 
G2 X-32.250 Y-20.000 Z5.500 I-0.000 J1.250 
G1 X-32.250 Y20.000 Z5.500 
G2 X-31.000 Y21.250 Z5.500 I1.250 J0.000 
G1 X31.000 Y21.250 Z5.500 
G2 X31.884 Y20.884 Z5.500 I0.000 J-1.250 
G1 X31.884 Y20.884 Z3.000 
G2 X32.250 Y20.000 Z3.000 I-0.884 J-0.884 
G1 X32.250 Y-20.000 Z3.000 
G2 X31.000 Y-21.250 Z3.000 I-1.250 J-0.000 
G1 X-31.000 Y-21.250 Z3.000 
G2 X-32.250 Y-20.000 Z3.000 I-0.000 J1.250 
G1 X-32.250 Y20.000 Z3.000 
G2 X-31.000 Y21.250 Z3.000 I1.250 J0.000 
G1 X31.000 Y21.250 Z3.000 
G2 X31.884 Y20.884 Z3.000 I0.000 J-1.250 
G1 X31.884 Y20.884 Z0.500 
G2 X32.250 Y20.000 Z0.500 I-0.884 J-0.884 
G1 X32.250 Y-20.000 Z0.500 
G2 X31.000 Y-21.250 Z0.500 I-1.250 J-0.000 
G1 X-31.000 Y-21.250 Z0.500 
G2 X-32.250 Y-20.000 Z0.500 I-0.000 J1.250 
G1 X-32.250 Y20.000 Z0.500 
G2 X-31.000 Y21.250 Z0.500 I1.250 J0.000 
G1 X31.000 Y21.250 Z0.500 
G2 X31.884 Y20.884 Z0.500 I0.000 J-1.250 
G1 X31.884 Y20.884 Z0.000 
G2 X32.250 Y20.000 Z0.000 I-0.884 J-0.884 
G1 X32.250 Y-20.000 Z0.000 
G2 X31.000 Y-21.250 Z0.000 I-1.250 J-0.000 
G1 X-31.000 Y-21.250 Z0.000 
G2 X-32.250 Y-20.000 Z0.000 I-0.000 J1.250 
G1 X-32.250 Y20.000 Z0.000 
G2 X-31.000 Y21.250 Z0.000 I1.250 J0.000 
G1 X31.000 Y21.250 Z0.000 
G2 X31.884 Y20.884 Z0.000 I0.000 J-1.250 
G0 Z13.000 
G0 Z13.000 
(finish operation: Profile)
(begin postamble)
M05
G17 G54 G90 G80 G40
M2
